!!!!SEGMENT: pl-stab--10a--001-007_rodowski-aleksander--litanie-lauretane-de-b-v-m-rosa-mistica.krn
!!!cenid: 18xx:3437
!!!COM: Rodowski, Aleksander
!!!COM-rismID: pe30009627
!!!CDT: <1790->1810
!!!CNT: Polish
!!!OPR: Litanie Lauretane de B.V.M
!!!OTL: Rosa mistica
!!!OMV: 007
!!!PDT:
!!!AGN:
!!!SMS-siglum: PL-STAb
!!!SMS-shelfmark: 10a
!!!SMS-shelfwork: 001-007 M
!!!SMS-variant:
!!!SMS-altvar:
!!!NIFC-rismSourceID: 301050674
!!!NIFC-islandoraID: pl-stab:2273
!!!URL-pdf-islandora: https://repozytorium.nifc.pl/islandora/object/pl-stab%3A2273/datastream/PDF/view
!!!URL-scan: https://polish.musicsources.pl/pl/lokalizacje/galeria/rekopisy/4397 @EN{Scan on Polish Music Sources Website} @PL{Skany w portalu Dziedzictwo Muzyki Polskiej w otwartym dostępie}
!!!ONB-nifc: UWAGA: części Litanii: 1. Kyrie, 2. Pater de caelis, 3. Sancta Maria, 4. Mater Christi, 5. Mater amabilis, 6. Virgo prudentissima, 7. Rosa mistica, 8. Salus infirmorum, 9. Regina angelorum, 10. Agnus Dei
!!!AIN: 1 bass 2 cor 1 organ 1 soprn 1 tenor 2 violn
!!!key: F
**kern	**fba	**kern	**dynam	**kern	**dynam	**kern	**kern	**text	**kern	**kern	**kern
*part8	*part8	*part7	*part7	*part6	*part6	*part5	*part4	*part4	*part3	*part2	*part1
*staff8	*staff8	*staff7	*	*staff6	*	*staff5	*staff4	*staff4	*staff3	*staff2	*staff1
*I"Organo	*	*I"Violino Secundo	*	*I"Violino Primo	*	*I"Baſso	*I"Tenore	*	*I"Canto	*I"Cornu Secundo in G.	*I"Cornu Primo in G.
*I'org	*	*I'vl 2	*	*I'vl 1	*	*I'B	*I'T	*	*I'S	*I'cor 2 in G	*I'cor 1 in G
*Iorgan	*	*Ivioln	*	*Ivioln	*	*Ibass	*Itenor	*	*Isoprn	*Icor	*Icor
*ICklav	*	*ICstr	*	*ICstr	*	*ICvox	*ICvox	*	*ICvox	*ICbras	*ICbras
*IGcont	*	*IGacmp	*	*IGacmp	*	*	*IGsolo	*	*	*	*
*clefF4	*	*clefG2	*	*clefG2	*	*clefF4	*clefC4	*	*	*	*
*k[b-]	*	*k[b-]	*	*k[b-]	*	*k[b-]	*k[b-]	*	*	*	*
*F:	*	*F:	*	*F:	*	*F:	*F:	*	*	*	*
*M3/4	*	*M3/4	*	*M3/4	*	*M3/4	*M3/4	*	*	*	*
=1	=1	=1	=1	=1	=1	=1	=1	=1	=1	=1	=1
!	!	!	!	!	!	!	!LO:TX:b:t=17:color=grey	!	!	!	!
!LO:TX:t=P:problem=mixed beam	!	!	!	!	!	!	!LO:TX:a:t=17:color=grey	!	!	!	!
!LO:TX:a:B:t=Adagio	!	!LO:TX:a:B:t=Adagio	!	!LO:TX:a:B:t=Adagio	!	!LO:TX:a:t=Rosa Tacet	!LO:TX:a:B:t=Adagio	!	!LO:TX:a:t=Rosa Tacet	!LO:TX:a:t=Rosa Tacet	!LO:TX:a:t=Rosa Tacet
8FF/L	.	4.a/	.	4.cc\	.	2.ryy	0.r	.	2.ryy	2.ryy	2.ryy
8F\J	.	.	.	.	.	.	.	.	.	.	.
*2\right	*	*	*	*	*	*	*	*	*	*	*
*tremolo	*	*	*	*	*	*	*	*	*	*	*
8F\L	.	.	.	.	.	.	.	.	.	.	.
8F\	.	8f/L	.	8a\L	.	.	.	.	.	.	.
8F\	.	8.a/	.	8cc\	.	.	.	.	.	.	.
8F\J	.	.	.	8a\J	.	.	.	.	.	.	.
.	.	16f/Jk	.	.	.	.	.	.	.	.	.
*Xtremolo	*	*	*	*	*	*	*	*	*	*	*
=2	=2	=2	=2	=2	=2	=2	=2	=2	=2	=2	=2
!LO:TX:t=P:problem=mixed beam	!	!	!	!	!	!	!	!	!	!	!
8FF/L	.	8.a/L	.	8.cc\L	.	2.ryy	.	.	2.ryy	2.ryy	2.ryy
8F\	.	.	.	.	.	.	.	.	.	.	.
.	.	16f/Jk	.	16a\Jk	.	.	.	.	.	.	.
8F\	.	16a/LL	.	4.cc\	.	.	.	.	.	.	.
.	.	16f/	.	.	.	.	.	.	.	.	.
8F\J	.	16e/	.	.	.	.	.	.	.	.	.
.	.	16d/JJ	.	.	.	.	.	.	.	.	.
8A\L	6 3	16c/LL	.	.	.	.	.	.	.	.	.
.	.	16A/	.	.	.	.	.	.	.	.	.
8A\J	.	16c/	.	16a/LL	.	.	.	.	.	.	.
.	.	16A/JJ	.	16f/JJ	.	.	.	.	.	.	.
=3	=3	=3	=3	=3	=3	=3	=3	=3	=3	=3	=3
8B-\L	6 3	8B-/L	.	16e/LL	.	2.ryy	.	.	2.ryy	2.ryy	2.ryy
.	.	.	.	16g/	.	.	.	.	.	.	.
8B-\	.	8e/	.	16b-/	.	.	.	.	.	.	.
.	.	.	.	16dd/JJ	.	.	.	.	.	.	.
8A\	3	8A/	.	8.cc/L	.	.	.	.	.	.	.
8A\	.	8f/	.	.	.	.	.	.	.	.	.
.	.	.	.	16a/Jk	.	.	.	.	.	.	.
8B-\	3	8B-/	.	16cc/LL	.	.	.	.	.	.	.
.	.	.	.	16b-/	.	.	.	.	.	.	.
8c\J	3	8c/J	.	16g/	.	.	.	.	.	.	.
.	.	.	.	16e/JJ	.	.	.	.	.	.	.
=4	=4	=4	=4	=4	=4	=4	=4	=4	=4	=4	=4
4F\	.	8.B-/L	.	8.g/L	.	2.ryy	.	.	2.ryy	2.ryy	2.ryy
.	.	16A/Jk	.	16f/Jk	.	.	.	.	.	.	.
4FF/	.	4A/	.	4f/	.	.	.	.	.	.	.
4r	.	16dd\LL	.	16ff\LL	.	.	.	.	.	.	.
.	.	16cc\	.	16ee\	.	.	.	.	.	.	.
.	.	16b-\	.	16dd\	.	.	.	.	.	.	.
.	.	16a\JJ	.	16cc\JJ	.	.	.	.	.	.	.
=5	=5	=5	=5	=5	=5	=5	=5	=5	=5	=5	=5
!LO:TX:t=P:problem=mixed beam	!	!	!	!	!	!	!	!	!	!	!
8FF/L	.	4.a/	.	4.cc\	.	2.ryy	0.r	.	2.ryy	2.ryy	2.ryy
8F\	.	.	.	.	.	.	.	.	.	.	.
8A\	.	.	.	.	.	.	.	.	.	.	.
8d\	5 3	16f/LL	.	16a\LL	.	.	.	.	.	.	.
.	.	16a/JJ	.	16cc\JJ	.	.	.	.	.	.	.
8B-\	6	16d/LL	.	16b-/LL	.	.	.	.	.	.	.
.	.	16B-/	.	16g/	.	.	.	.	.	.	.
8c\J	3	16A/	.	16f/	.	.	.	.	.	.	.
.	.	16G/JJ	.	16e/JJ	.	.	.	.	.	.	.
!	!	!	!	!LO:LB:g=original	!	!	!	!	!	!	!
=6	=6	=6	=6	=6	=6	=6	=6	=6	=6	=6	=6
4F\	.	8.B-/L	.	8.g/L	.	2.ryy	.	.	2.ryy	2.ryy	2.ryy
.	.	16A/Jk	.	16f/Jk	.	.	.	.	.	.	.
!LO:TX:t=P:problem=mixed beam	!	!	!	!	!	!	!	!	!	!	!
16FF/LL	.	4A/	.	4f/	.	.	.	.	.	.	.
16F\	.	.	.	.	.	.	.	.	.	.	.
16C\	.	.	.	.	.	.	.	.	.	.	.
16AA\JJ	.	.	.	.	.	.	.	.	.	.	.
4FF/	.	4r	.	4r	.	.	.	.	.	.	.
=7	=7	=7	=7	=7	=7	=7	=7	=7	=7	=7	=7
4FF/	.	16A/LL	.	16r	.	2.ryy	.	.	2.ryy	2.ryy	2.ryy
.	.	16c/	.	16A/LL	.	.	.	.	.	.	.
.	.	16f/	.	16c/	.	.	.	.	.	.	.
.	.	16c/JJ	.	16f/JJ	.	.	.	.	.	.	.
*	*	*rep	*	*	*	*	*	*	*	*	*
4F\	.	16A/LL	.	8.a/L	.	.	.	.	.	.	.
.	.	16c/	.	.	.	.	.	.	.	.	.
.	.	16f/	.	.	.	.	.	.	.	.	.
.	.	16c/JJ	.	16f/Jk	.	.	.	.	.	.	.
*	*	*Xrep	*	*	*	*	*	*	*	*	*
*	*	*rep	*	*	*	*	*	*	*	*	*
4r	.	16A/LL	.	16c/LL	.	.	.	.	.	.	.
.	.	16c/	.	16f/	.	.	.	.	.	.	.
.	.	16f/	.	16a/	.	.	.	.	.	.	.
.	.	16c/JJ	.	16cc/JJ	.	.	.	.	.	.	.
*	*	*Xrep	*	*	*	*	*	*	*	*	*
!	!	!LO:LB:g=original	!	!	!	!	!	!	!	!	!
=8	=8	=8	=8	=8	=8	=8	=8	=8	=8	=8	=8
4C/	.	16B-/LL	.	8b-/L	.	2.ryy	.	.	2.ryy	2.ryy	2.ryy
.	.	16c/	.	.	.	.	.	.	.	.	.
.	.	16e/	.	16g/L	.	.	.	.	.	.	.
.	.	16c/JJ	.	16a/JJ	.	.	.	.	.	.	.
4CC/	.	16B-/LL	.	4e/	.	.	.	.	.	.	.
.	.	16c/	.	.	.	.	.	.	.	.	.
.	.	16e/	.	.	.	.	.	.	.	.	.
.	.	16g/JJ	.	.	.	.	.	.	.	.	.
4r	.	16f/LL	.	4r	.	.	.	.	.	.	.
.	.	16e/	.	.	.	.	.	.	.	.	.
.	.	16d/	.	.	.	.	.	.	.	.	.
.	.	16c/JJ	.	.	.	.	.	.	.	.	.
!LO:LB:g=original	!	!	!	!	!	!	!	!	!	!	!
=9	=9	=9	=9	=9	=9	=9	=9	=9	=9	=9	=9
4GG/	.	16A/LL	.	16a\LL	.	2.ryy	0.r	.	2.ryy	2.ryy	2.ryy
.	.	16c/	.	16cc\	.	.	.	.	.	.	.
.	.	16f/	.	16ff\	.	.	.	.	.	.	.
.	.	16c/JJ	.	16aa\JJ	.	.	.	.	.	.	.
*	*	*rep	*	*	*	*	*	*	*	*	*
4G\	.	16A/LL	.	8.ccc\L	.	.	.	.	.	.	.
.	.	16c/	.	.	.	.	.	.	.	.	.
.	.	16f/	.	.	.	.	.	.	.	.	.
.	.	16c/JJ	.	16aa\Jk	.	.	.	.	.	.	.
*	*	*Xrep	*	*	*	*	*	*	*	*	*
*	*	*rep	*	*	*	*	*	*	*	*	*
4r	.	16A/LL	.	16ff\LL	.	.	.	.	.	.	.
.	.	16c/	.	16aa\	.	.	.	.	.	.	.
.	.	16f/	.	16ccc\	.	.	.	.	.	.	.
.	.	16c/JJ	.	16ddd\JJ	.	.	.	.	.	.	.
*	*	*Xrep	*	*	*	*	*	*	*	*	*
=10	=10	=10	=10	=10	=10	=10	=10	=10	=10	=10	=10
4C/	.	16B-/LL	.	8bb-\L	.	2.ryy	.	.	2.ryy	2.ryy	2.ryy
.	.	16c/	.	.	.	.	.	.	.	.	.
.	.	16g/	.	16gg\L	.	.	.	.	.	.	.
.	.	16c/JJ	.	16aa\JJ	.	.	.	.	.	.	.
4CC/	.	16B-/LL	.	4ee\	.	.	.	.	.	.	.
.	.	16c/	.	.	.	.	.	.	.	.	.
.	.	16e/	.	.	.	.	.	.	.	.	.
.	.	16g/JJ	.	.	.	.	.	.	.	.	.
4r	.	16c/LL	.	4r	.	.	.	.	.	.	.
.	.	16e/	.	.	.	.	.	.	.	.	.
.	.	16g/	.	.	.	.	.	.	.	.	.
.	.	16b-/JJ	.	.	.	.	.	.	.	.	.
=11	=11	=11	=11	=11	=11	=11	=11	=11	=11	=11	=11
!LO:TX:t=P:problem=mixed beam	!	!	!	!	!	!	!	!	!	!	!
8FF/L	.	4a/	.	4ff\	.	2.ryy	.	.	2.ryy	2.ryy	2.ryy
8F\	.	.	.	.	.	.	.	.	.	.	.
8FF/J	.	16dd\LL	.	16ff\LL	.	.	.	.	.	.	.
.	.	16cc#X\	.	16ee\	.	.	.	.	.	.	.
8r	.	16dd\	.	16ff\	.	.	.	.	.	.	.
.	.	16cc#\JJ	.	16ee\JJ	.	.	.	.	.	.	.
4r	.	16dd\LL	.	16ff\LL	.	.	.	.	.	.	.
.	.	16ccn\	.	16ee\	.	.	.	.	.	.	.
.	.	16b-\	.	16dd\	.	.	.	.	.	.	.
.	.	16a\JJ	.	16cc#X\JJ	.	.	.	.	.	.	.
!	!	!	!	!LO:PB:g=original	!	!	!	!	!	!	!
=12	=12	=12	=12	=12	=12	=12	=12	=12	=12	=12	=12
!LO:TX:t=P:problem=mixed beam	!	!	!	!	!	!	!	!	!	!	!
8BB-/L	.	4b-\	.	4dd\	.	2.ryy	.	.	2.ryy	2.ryy	2.ryy
8B-\	.	.	.	.	.	.	.	.	.	.	.
8BB-/J	.	16b-\LL	.	16dd\LL	.	.	.	.	.	.	.
.	.	16a\	.	16cc#X\	.	.	.	.	.	.	.
8r	.	16b-\	.	16dd\	.	.	.	.	.	.	.
.	.	16a\JJ	.	16cc#\JJ	.	.	.	.	.	.	.
4r	.	16b-\LL	.	16dd\LL	.	.	.	.	.	.	.
.	.	16cc\	.	16ee\	.	.	.	.	.	.	.
.	.	16dd\	.	16ff\	.	.	.	.	.	.	.
.	.	16b-\JJ	.	16dd\JJ	.	.	.	.	.	.	.
=13	=13	=13	=13	=13	=13	=13	=13	=13	=13	=13	=13
4c\	.	8a/L	.	8ccn\L	.	2.ryy	0.r	.	2.ryy	2.ryy	2.ryy
.	.	8a/	.	8cc\	.	.	.	.	.	.	.
4r	.	8g#X/	.	8bn\	.	.	.	.	.	.	.
.	.	8gn/	.	8b-X\J	.	.	.	.	.	.	.
4C/	.	8f/	.	8a\L	.	.	.	.	.	.	.
.	.	8e/J	.	8g\J	.	.	.	.	.	.	.
!	!	!LO:LB:g=original	!	!	!	!	!	!	!	!	!
=14	=14	=14	=14	=14	=14	=14	=14	=14	=14	=14	=14
!LO:TX:t=P:problem=mixed beam	!	!	!	!	!	!	!	!	!	!	!
8FF/L	.	4a/	.	4ff\	.	2.ryy	.	.	2.ryy	2.ryy	2.ryy
8F\	.	.	.	.	.	.	.	.	.	.	.
8FF/J	.	16dd\LL	.	16ff\LL	.	.	.	.	.	.	.
.	.	16cc#X\	.	16ee\	.	.	.	.	.	.	.
8r	.	16dd\	.	16ff\	.	.	.	.	.	.	.
.	.	16cc#\JJ	.	16ee\JJ	.	.	.	.	.	.	.
4r	.	16dd\LL	.	16ff\LL	.	.	.	.	.	.	.
.	.	16ccn\	.	16ee\	.	.	.	.	.	.	.
.	.	16b-\	.	16dd\	.	.	.	.	.	.	.
.	.	16a\JJ	.	16cc#X\JJ	.	.	.	.	.	.	.
=15	=15	=15	=15	=15	=15	=15	=15	=15	=15	=15	=15
!LO:TX:t=P:problem=mixed beam	!	!	!	!	!	!	!	!	!	!	!
8BB-/L	.	4b-\	.	4dd\	.	2.ryy	.	.	2.ryy	2.ryy	2.ryy
8B-\	.	.	.	.	.	.	.	.	.	.	.
8BB-/J	.	16b-\LL	.	16dd\LL	.	.	.	.	.	.	.
.	.	16a\	.	16cc#X\	.	.	.	.	.	.	.
8r	.	16b-\	.	16dd\	.	.	.	.	.	.	.
.	.	16a\JJ	.	16cc#\JJ	.	.	.	.	.	.	.
4r	.	16b-\LL	.	16dd\LL	.	.	.	.	.	.	.
.	.	16cc\	.	16ee\	.	.	.	.	.	.	.
.	.	16dd\	.	16ff\	.	.	.	.	.	.	.
.	.	16b-\JJ	.	16dd\JJ	.	.	.	.	.	.	.
=16	=16	=16	=16	=16	=16	=16	=16	=16	=16	=16	=16
4c\	.	8a/L	.	8ccn\L	.	2.ryy	.	.	2.ryy	2.ryy	2.ryy
.	.	8a/	.	8cc\	.	.	.	.	.	.	.
4r	.	8g#X/	.	8bn\	.	.	.	.	.	.	.
.	.	8gn/	.	8b-X\J	.	.	.	.	.	.	.
4C/	.	8f/	.	8a\L	.	.	.	.	.	.	.
.	.	8e/J	.	8g\J	.	.	.	.	.	.	.
=17	=17	=17	=17	=17	=17	=17	=17	=17	=17	=17	=17
4FF/	.	4f/	.	4f/	.	2.ryy	2.r	.	2.ryy	2.ryy	2.ryy
4F\	.	4a 4f 4A/	.	4ff 4a/	.	.	.	.	.	.	.
4r	.	4r	.	4r	.	.	.	.	.	.	.
!	!	!	!	!LO:LB:g=original	!	!	!	!	!	!	!
=18	=18	=18	=18	=18	=18	=18	=18	=18	=18	=18	=18
!LO:TX:t=P:problem=mixed beam	!	!	!	!	!LO:DY:t=p.	!	!LO:TX:a:i:t=Solo:rj	!	!	!	!
8FF/L	.	4.c/	.	4.a/	p	2.ryy	(4.c\	Ro-	2.ryy	2.ryy	2.ryy
8F\J	.	.	.	.	.	.	.	.	.	.	.
*tremolo	*	*	*	*	*	*	*	*	*	*	*
8F\L	.	.	.	.	.	.	.	.	.	.	.
8F\	.	8A/L	.	8f/L	.	.	8A\)	.	.	.	.
8F\	.	8c/	.	8.a/	.	.	8c\L	-sa	.	.	.
8F\J	.	8A/J	.	.	.	.	8A\J	.	.	.	.
.	.	.	.	16f/Jk	.	.	.	.	.	.	.
*Xtremolo	*	*	*	*	*	*	*	*	*	*	*
!LO:PB:g=original	!	!	!	!	!	!	!	!	!	!	!
=19	=19	=19	=19	=19	=19	=19	=19	=19	=19	=19	=19
!LO:TX:t=P:problem=mixed beam	!	!	!	!	!	!	!	!	!	!	!
8FF/L	.	8.c/L	.	8.a/L	.	2.ryy	8.c\	mi-	2.ryy	2.ryy	2.ryy
8F\	.	.	.	.	.	.	.	.	.	.	.
.	.	16A/Jk	.	16f/Jk	.	.	16A\	-sti-	.	.	.
8F\	.	8c/L	.	8a/L	.	.	4c\	-ca	.	.	.
8F\	.	8a/J	.	8cc/J	.	.	.	.	.	.	.
8A\	6 3	16a/LL	.	16ff\LL	.	.	4r	.	.	.	.
.	.	16a/	.	16cc\	.	.	.	.	.	.	.
8A\J	.	16g/	.	16b-\	.	.	.	.	.	.	.
.	.	16f/JJ	.	16a\JJ	.	.	.	.	.	.	.
=20	=20	=20	=20	=20	=20	=20	=20	=20	=20	=20	=20
8B-\L	6 3	4B-/	.	4g/	.	2.ryy	16E/LL	Tu-	2.ryy	2.ryy	2.ryy
.	.	.	.	.	.	.	16G/JJ	.	.	.	.
8B-\	.	.	.	.	.	.	16B-\LL	-ris	.	.	.
.	.	.	.	.	.	.	16d\JJ	.	.	.	.
*	*	*	*	*	*	*	*	*ij	*	*	*
8A\	6	8.c/L	.	8.a/L	.	.	8.c\L	Tu-	.	.	.
8d\	.	.	.	.	.	.	.	.	.	.	.
.	.	16A/Jk	.	16f/Jk	.	.	16A\Jk	.	.	.	.
8B-\	4	16c/LL	.	16a/LL	.	.	16c\LL	-ris	.	.	.
*	*	*	*	*	*	*	*	*Xij	*	*	*
.	.	16B-/	.	16g/	.	.	16B-\JJ	.	.	.	.
8c\J	.	16g/	.	16b-/	.	.	16G/LL	da-	.	.	.
.	.	16e/JJ	.	16g/JJ	.	.	16E/JJ	.	.	.	.
!	!	!LO:LB:g=original	!	!	!	!	!	!	!	!	!
=21	=21	=21	=21	=21	=21	=21	=21	=21	=21	=21	=21
4F\	.	8.g/L	.	8.b-/L	.	2.ryy	8.G/	-vi-	2.ryy	2.ryy	2.ryy
.	.	16f/Jk	.	16a/Jk	.	.	16F/	-di-	.	.	.
4FF/	.	4f/	.	4a/	.	.	4F/	-ca	.	.	.
!	!	!	!	!	!	!	!LO:LB:g=original	!	!	!	!
4r	.	4r	.	16dd\LL	.	.	16f\LL	Tu-	.	.	.
.	.	.	.	16cc\	.	.	16e\JJ	.	.	.	.
.	.	.	.	16b-\	.	.	16d\LL	-ris	.	.	.
.	.	.	.	16a\JJ	.	.	16c\JJ	.	.	.	.
=22	=22	=22	=22	=22	=22	=22	=22	=22	=22	=22	=22
*	*	*	*	*	*	*	*	*ij	*	*	*
!LO:TX:t=P:problem=mixed beam	!	!	!	!	!	!	!	!	!	!	!
8FF/L	.	4.c/	.	4.a/	.	2.ryy	4.c\	Tu-	2.ryy	2.ryy	2.ryy
8F\	.	.	.	.	.	.	.	.	.	.	.
8A\	6	.	.	.	.	.	.	.	.	.	.
8d\	.	16A/LL	.	16f/LL	.	.	16A\LL	.	.	.	.
.	.	16c/JJ	.	16a/JJ	.	.	16c\JJ	.	.	.	.
8B-\	3	16B-/LL	.	16dd\LL	.	.	16B-/LL	-ris	.	.	.
*	*	*	*	*	*	*	*	*Xij	*	*	*
.	.	16g/	.	16b-\	.	.	16G/JJ	.	.	.	.
8c\J	3	16f/	.	16a\	.	.	16F/LL	da-	.	.	.
.	.	16e/JJ	.	16g\JJ	.	.	16E/JJ	.	.	.	.
=23	=23	=23	=23	=23	=23	=23	=23	=23	=23	=23	=23
4F\	.	8.g/L	.	8.b-/L	.	2.ryy	8.G/	-vi-	2.ryy	2.ryy	2.ryy
.	.	16f/Jk	.	16a/Jk	.	.	16F/	-di-	.	.	.
!LO:TX:t=P:problem=mixed beam	!	!LO:TX:t=P:problem=mixed beam	!	!	!	!	!	!	!	!	!
16FF/LL	.	16f/LL	.	16a\LL	.	.	4F/	-ca	.	.	.
16F\	.	16ff\	.	16ff\	.	.	.	.	.	.	.
16C\	.	16cc\	.	16cc\	.	.	.	.	.	.	.
16AA\JJ	.	16a\JJ	.	16a\JJ	.	.	.	.	.	.	.
8FF/	.	4f/	.	4f/	.	.	4r	.	.	.	.
8r	.	.	.	.	.	.	.	.	.	.	.
!	!	!	!	!LO:LB:g=original	!	!	!	!	!	!	!
=24	=24	=24	=24	=24	=24	=24	=24	=24	=24	=24	=24
!LO:TX:t=P:problem=mixed beam	!	!	!	!	!	!	!	!	!	!	!
8FF/L	.	8A/L	.	16f/LL	.	2.ryy	8r	.	2.ryy	2.ryy	2.ryy
.	.	.	.	16A/	.	.	.	.	.	.	.
8F\J	.	8c/J	.	16c/	.	.	8F/	Tu-	.	.	.
.	.	.	.	16f/JJ	.	.	.	.	.	.	.
*tremolo	*	*rep	*	*	*	*	*	*	*	*	*
8F\L	.	8A/L	.	8a/L	.	.	4.A\	-ris	.	.	.
8F\	.	8c/J	.	8f/	.	.	.	.	.	.	.
*	*	*Xrep	*	*	*	*	*	*	*	*	*
*	*	*rep	*	*	*	*	*	*	*	*	*
8F\	.	8A/L	.	8c/	.	.	.	.	.	.	.
8F\J	.	8c/J	.	8a/J	.	.	8c\	e-	.	.	.
*Xtremolo	*	*Xrep	*	*	*	*	*	*	*	*	*
=25	=25	=25	=25	=25	=25	=25	=25	=25	=25	=25	=25
4G\	.	8B-/L	.	8g/L	.	2.ryy	8B-\	-bur-	2.ryy	2.ryy	2.ryy
.	.	8c/J	.	8e/J	.	.	16G/LL	-ne-	.	.	.
.	.	.	.	.	.	.	16A/JJ	.	.	.	.
*	*	*rep	*	*	*	*	*	*	*	*	*
!	!	!	!	!LO:TX:t=P:problem=mixed beam	!	!	!	!	!	!	!
4C/	.	8B-/L	.	16c/LL	.	.	4E/	-a	.	.	.
.	.	.	.	16cc\	.	.	.	.	.	.	.
.	.	8c/J	.	16ee\	.	.	.	.	.	.	.
.	.	.	.	16gg\JJ	.	.	.	.	.	.	.
*	*	*Xrep	*	*	*	*	*	*	*	*	*
*	*	*rep	*	*	*	*	*	*	*	*	*
4r	.	8B-/L	.	16ff\LL	.	.	4r	.	.	.	.
.	.	.	.	16ee\	.	.	.	.	.	.	.
.	.	8c/J	.	16dd\	.	.	.	.	.	.	.
.	.	.	.	16cc\JJ	.	.	.	.	.	.	.
*	*	*Xrep	*	*	*	*	*	*	*	*	*
=26	=26	=26	=26	=26	=26	=26	=26	=26	=26	=26	=26
*	*	*tremolo	*	*	*	*	*	*	*	*	*
!LO:TX:t=P:problem=mixed beam	!	!	!	!	!	!	!	!	!	!	!
8FF/L	.	8A/L	.	16a\LL	.	2.ryy	8r	.	2.ryy	2.ryy	2.ryy
.	.	.	.	16cc\	.	.	.	.	.	.	.
8F\J	.	8c/	.	16ff\	.	.	8F/	Do-	.	.	.
.	.	.	.	16aa\JJ	.	.	.	.	.	.	.
*tremolo	*	*	*	*	*	*	*	*	*	*	*
8F\L	.	8A/	.	8.ccc\L	.	.	4.A\	-mus	.	.	.
8F\	.	8c/	.	.	.	.	.	.	.	.	.
.	.	.	.	16aa\Jk	.	.	.	.	.	.	.
8F\	.	8A/	.	16ff\LL	.	.	.	.	.	.	.
.	.	.	.	16aa\	.	.	.	.	.	.	.
8F\J	.	8c/J	.	16ccc\	.	.	8c\	.	.	.	.
.	.	.	.	16ddd\JJ	.	.	.	.	.	.	.
*Xtremolo	*	*	*	*	*	*	*	*	*	*	*
!	!	!	!	!	!	!	!LO:LB:g=original	!	!	!	!
=27	=27	=27	=27	=27	=27	=27	=27	=27	=27	=27	=27
4G\	.	8B-/L	.	8.bb-\L	.	2.ryy	8B-\	au-	2.ryy	2.ryy	2.ryy
.	.	8c/	.	.	.	.	16G/LL	-re-	.	.	.
.	.	.	.	32gg\LL	.	.	16A/JJ	.	.	.	.
.	.	.	.	32aa\JJJ	.	.	.	.	.	.	.
4C/	.	8B-/	.	4ee\	.	.	4E/	-a	.	.	.
.	.	8c/	.	.	.	.	.	.	.	.	.
4r	.	8B-/	.	4r	.	.	4r	.	.	.	.
.	.	8c/J	.	.	.	.	.	.	.	.	.
*	*	*Xtremolo	*	*	*	*	*	*	*	*	*
!LO:LB:g=original	!	!	!	!	!	!	!	!	!	!	!
=28	=28	=28	=28	=28	=28	=28	=28	=28	=28	=28	=28
4F\	.	8.a/L	.	8ff\L	.	2.ryy	8A\L	O-	2.ryy	2.ryy	2.ryy
.	.	.	.	8ee\	.	.	8c\J	.	.	.	.
.	.	16cc/Jk	.	.	.	.	.	.	.	.	.
4r	.	8.b-/L	.	8.dd\	.	.	8.d\L	.	.	.	.
.	.	16a/K	.	16cc\K	.	.	16c\Jk	.	.	.	.
4r	.	8.g/	.	8.b-\	.	.	8.B-\	-ra	.	.	.
.	.	16f/Jk	.	16a\Jk	.	.	16A\	pro	.	.	.
=29	=29	=29	=29	=29	=29	=29	=29	=29	=29	=29	=29
4C/	.	8.a/L	.	8.cc\L	.	2.ryy	8.c\L	no-	2.ryy	2.ryy	2.ryy
.	.	16f/Jk	.	16a\Jk	.	.	16A\Jk	.	.	.	.
!	!	!LO:LB:g=original	!	!	!	!	!	!	!	!	!
!	!	!LO:TX:t=P:problem=mixed beam	!	!	!	!	!	!	!	!	!
4CC/	.	16e/LL	.	16g\LL	.	.	4G/	-bis	.	.	.
.	.	16e/	.	16cc\	.	.	.	.	.	.	.
.	.	16cc\	.	16ee\	.	.	.	.	.	.	.
.	.	16ee\JJ	.	16gg\JJ	.	.	.	.	.	.	.
4r	.	4cc 4e 4G/	.	4ccc\	.	.	4r	.	.	.	.
!	!	!	!	!LO:LB:g=original	!	!	!	!	!	!	!
=30	=30	=30	=30	=30	=30	=30	=30	=30	=30	=30	=30
4C/	.	8r	.	2.r	.	2.ryy	(4.G/	Foe-	2.ryy	2.ryy	2.ryy
.	.	8e 8G/	.	.	.	.	.	.	.	.	.
*	*	*tremolo	*	*	*	*	*	*	*	*	*
4CC/	.	8eL 8G/	.	.	.	.	.	.	.	.	.
.	.	8e 8G/	.	.	.	.	8e\)	.	.	.	.
4r	.	8e 8G/	.	.	.	.	8Bn\	-de-	.	.	.
.	.	8eJ 8G/	.	.	.	.	8c\	-ris	.	.	.
*	*	*Xtremolo	*	*	*	*	*	*	*	*	*
=31	=31	=31	=31	=31	=31	=31	=31	=31	=31	=31	=31
4DD/	.	8r	.	4r	.	2.ryy	8.c#X\L	ar-	2.ryy	2.ryy	2.ryy
.	.	8f 8G/	.	.	.	.	.	.	.	.	.
.	.	.	.	.	.	.	16d\Jk	.	.	.	.
*	*	*tremolo	*	*	*	*	*	*	*	*	*
4D\	.	8fL 8G/	.	16dd\LL	.	.	4d\	-ca	.	.	.
.	.	.	.	16ddd\	.	.	.	.	.	.	.
.	.	8f 8G/	.	16ccc#X\	.	.	.	.	.	.	.
.	.	.	.	16ddd\JJ	.	.	.	.	.	.	.
4r	.	8f 8G/	.	16cccn\LL	.	.	4r	.	.	.	.
.	.	.	.	16bbn\	.	.	.	.	.	.	.
.	.	8fJ 8G/	.	16aa\	.	.	.	.	.	.	.
.	.	.	.	16gg\JJ	.	.	.	.	.	.	.
*	*	*Xtremolo	*	*	*	*	*	*	*	*	*
=32	=32	=32	=32	=32	=32	=32	=32	=32	=32	=32	=32
4BBn/	.	8r	.	4gg\	.	2.ryy	(4.G/	Ja-	2.ryy	2.ryy	2.ryy
.	.	8d 8G/	.	.	.	.	.	.	.	.	.
*	*	*tremolo	*	*	*	*	*	*	*	*	*
4BB/	.	8dL 8G/	.	4r	.	.	.	.	.	.	.
.	.	8d 8G/	.	.	.	.	8e\)	.	.	.	.
!	!	!	!	!	!	!	!LO:LB:g=original	!	!	!	!
4r	.	8d 8G/	.	4r	.	.	8c#X\	-nu-	.	.	.
.	.	8dJ 8G/	.	.	.	.	8d\	-a	.	.	.
*	*	*Xtremolo	*	*	*	*	*	*	*	*	*
=33	=33	=33	=33	=33	=33	=33	=33	=33	=33	=33	=33
4CC/	.	8r	.	4r	.	2.ryy	8.d#X\L	Cae-	2.ryy	2.ryy	2.ryy
.	.	8e 8G/	.	.	.	.	.	.	.	.	.
.	.	.	.	.	.	.	16e\Jk	.	.	.	.
*	*	*tremolo	*	*	*	*	*	*	*	*	*
4C/	.	8eL 8G/	.	16cc\LL	.	.	4e\	-li	.	.	.
.	.	.	.	16ccc\	.	.	.	.	.	.	.
.	.	8e 8G/	.	16bbn\	.	.	.	.	.	.	.
.	.	.	.	16aa\JJ	.	.	.	.	.	.	.
4r	.	8e 8G/	.	16gg\LL	.	.	4r	.	.	.	.
.	.	.	.	16ee\	.	.	.	.	.	.	.
.	.	8eJ 8G/	.	16ff\	.	.	.	.	.	.	.
.	.	.	.	16dd\JJ	.	.	.	.	.	.	.
*	*	*Xtremolo	*	*	*	*	*	*	*	*	*
=34	=34	=34	=34	=34	=34	=34	=34	=34	=34	=34	=34
!LO:TX:t=P:problem=mixed beam	!	!	!	!	!	!	!	!	!	!	!
8EE/L	6 3	8r	.	8cc\L	.	2.ryy	(4.G/	O-	2.ryy	2.ryy	2.ryy
8E\J	.	8g/	.	8cc\J	.	.	.	.	.	.	.
*	*	*	*	*2\right	*	*	*	*	*	*	*
*tremolo	*	*tremolo	*	*tremolo	*	*	*	*	*	*	*
8E\L	.	8g/L	.	8cc\L	.	.	.	.	.	.	.
8E\	.	8g/	.	8cc\	.	.	8g\)	.	.	.	.
8E\	.	8g/	.	8cc\	.	.	8f\	-ra	.	.	.
8E\J	.	8g/J	.	8cc\J	.	.	8e\	pro	.	.	.
*Xtremolo	*	*Xtremolo	*	*Xtremolo	*	*	*	*	*	*	*
=35	=35	=35	=35	=35	=35	=35	=35	=35	=35	=35	=35
!LO:TX:t=P:problem=mixed beam	!	!	!	!	!	!	!	!	!	!	!
8FF/L	6 3	8r	.	8r	.	2.ryy	16e\LL	no-	2.ryy	2.ryy	2.ryy
.	.	.	.	.	.	.	16f\	.	.	.	.
8F\	.	8a/	.	8dd\L	.	.	16c#X\	.	.	.	.
.	.	.	.	.	.	.	16d\JJ	.	.	.	.
*	*	*tremolo	*	*	*	*	*	*	*	*	*
8F\	.	8a/L	.	8dd\	.	.	4.d\	-bis	.	.	.
8F\	.	8a/	.	8dd\	.	.	.	.	.	.	.
8F\	.	8a/	.	8dd\	.	.	.	.	.	.	.
!	!	!	!	!	!	!	!LO:TX:a:t=ui	!	!	!	!
!	!	!	!	!	!	!	!LO:TX:t=P:problem=skreślenia do końca strony	!	!	!	!
8F#X\J	5 3	8a/J	.	8ccn\J	.	.	8cn\	pro	.	.	.
*	*	*Xtremolo	*	*	*	*	*	*	*	*	*
!	!	!	!	!	!	!	!LO:PB:g=original	!	!	!	!
=36	=36	=36	=36	=36	=36	=36	=36	=36	=36	=36	=36
!	!	!	!	!	!	!	!LO:TX:a:t=de	!	!	!	!
4G\	3	16b-\LL	.	16dd\LL	.	2.ryy	(16d\LL	no-	2.ryy	2.ryy	2.ryy
.	.	16a\	.	16cc\	.	.	16c\	.	.	.	.
.	.	16g\	.	16b-\	.	.	16Bn\	.	.	.	.
.	.	16a\JJ	.	16cc\JJ	.	.	16c\JJ)	.	.	.	.
16BB-/LL	.	16g\LL	.	16b-\LL	.	.	4B\	-bis	.	.	.
16GG/	.	16g\	.	16g\	.	.	.	.	.	.	.
16BB-/	.	16b-\	.	16b-\	.	.	.	.	.	.	.
16D/JJ	.	16dd\JJ	.	16dd\JJ	.	.	.	.	.	.	.
4G\	.	4gg\	.	4gg\	.	.	4r	.	.	.	.
=37	=37	=37	=37	=37	=37	=37	=37	=37	=37	=37	=37
4GG/	.	8r	.	2.r	.	2.ryy	8G/L	Fe-	2.ryy	2.ryy	2.ryy
.	.	8f/	.	.	.	.	8A/J	.	.	.	.
*	*	*tremolo	*	*	*	*	*	*	*	*	*
4G\	.	8fL 8G/	.	.	.	.	8B-\L	-de-	.	.	.
.	.	8f 8G/	.	.	.	.	8c\J	.	.	.	.
4r	.	8f 8G/	.	.	.	.	8d\L	-ris	.	.	.
.	.	8fJ 8G/	.	.	.	.	8e\J	.	.	.	.
*	*	*Xtremolo	*	*	*	*	*	*	*	*	*
!	!	!	!	!LO:LB:g=original	!	!	!	!	!	!	!
=38	=38	=38	=38	=38	=38	=38	=38	=38	=38	=38	=38
4CC/	.	8r	.	4r	.	2.ryy	8d\L	ar-	2.ryy	2.ryy	2.ryy
.	.	8e 8G/	.	.	.	.	8c\J	.	.	.	.
*	*	*tremolo	*	*	*	*	*	*	*	*	*
4C/	.	8eL 8G/	.	16r	.	.	4c\	-ca	.	.	.
.	.	.	.	16cc\LL	.	.	.	.	.	.	.
.	.	8e 8G/	.	16dd\	.	.	.	.	.	.	.
.	.	.	.	16ee\JJ	.	.	.	.	.	.	.
4r	.	8e 8G/	.	16ff\LL	.	.	4r	.	.	.	.
.	.	.	.	16gg\	.	.	.	.	.	.	.
.	.	8eJ 8G/	.	16aa\	.	.	.	.	.	.	.
.	.	.	.	16bbn\JJ	.	.	.	.	.	.	.
*	*	*Xtremolo	*	*	*	*	*	*	*	*	*
!LO:LB:g=original	!	!LO:LB:g=original	!	!	!	!	!	!	!	!	!
=39	=39	=39	=39	=39	=39	=39	=39	=39	=39	=39	=39
8CC/L	.	16G/LL	.	(4.ccc\	.	2.ryy	1.r	.	2.ryy	2.ryy	2.ryy
.	.	16c/	.	.	.	.	.	.	.	.	.
8C/	.	16e/	.	.	.	.	.	.	.	.	.
.	.	16c/JJ	.	.	.	.	.	.	.	.	.
*	*	*rep	*	*	*	*	*	*	*	*	*
8C/	.	16G/LL	.	.	.	.	.	.	.	.	.
.	.	16c/	.	.	.	.	.	.	.	.	.
*	*	*	*	*Xtuplet	*	*	*	*	*	*	*
8C/	.	16e/	.	24bb-\LL)	.	.	.	.	.	.	.
.	.	.	.	24aa\	.	.	.	.	.	.	.
.	.	16c/JJ	.	.	.	.	.	.	.	.	.
.	.	.	.	24gg\JJ	.	.	.	.	.	.	.
*	*	*Xrep	*	*	*	*	*	*	*	*	*
*	*	*rep	*	*	*	*	*	*	*	*	*
8E/	.	16G/LL	.	16aa\LL	.	.	.	.	.	.	.
.	.	16c/	.	16gg\	.	.	.	.	.	.	.
8C/J	.	16e/	.	16ff\	.	.	.	.	.	.	.
.	.	16c/JJ	.	16ee\JJ	.	.	.	.	.	.	.
*	*	*Xrep	*	*	*	*	*	*	*	*	*
=40	=40	=40	=40	=40	=40	=40	=40	=40	=40	=40	=40
4G\	.	16G/LL	.	16gg\LL	.	2.ryy	.	.	2.ryy	2.ryy	2.ryy
.	.	16B-/	.	16ff\	.	.	.	.	.	.	.
.	.	16d/	.	16ee\	.	.	.	.	.	.	.
.	.	16B-/JJ	.	16dd\JJ	.	.	.	.	.	.	.
!LO:TX:t=P:problem=mixed beam	!	!	!	!	!	!	!	!	!	!	!
16GG/LL	.	16G/LL	.	4dd\	.	.	.	.	.	.	.
16G\	.	16g/	.	.	.	.	.	.	.	.	.
!LO:SIC:v:s=16F#\	!	!	!	!	!	!	!	!	!	!	!
16F\	.	16f#X/	.	.	.	.	.	.	.	.	.
16G\JJ	.	16g/JJ	.	.	.	.	.	.	.	.	.
16A\LL	.	16a/LL	.	4r	.	.	.	.	.	.	.
16G\	.	16g/	.	.	.	.	.	.	.	.	.
16F#X\	.	16f#/	.	.	.	.	.	.	.	.	.
16G\JJ	.	16g/JJ	.	.	.	.	.	.	.	.	.
=41	=41	=41	=41	=41	=41	=41	=41	=41	=41	=41	=41
4GG/	.	8r	.	2.r	.	2.ryy	8G/L	Ja-	2.ryy	2.ryy	2.ryy
.	.	8f 8G/	.	.	.	.	8A/J	.	.	.	.
*	*	*tremolo	*	*	*	*	*	*	*	*	*
4r	.	8fL 8G/	.	.	.	.	8B-\L	-nu-	.	.	.
.	.	8f 8G/	.	.	.	.	8c\J	.	.	.	.
4G\	.	8f 8G/	.	.	.	.	8d\L	-a	.	.	.
.	.	8fJ 8G/	.	.	.	.	8e\J	.	.	.	.
*	*	*Xtremolo	*	*	*	*	*	*	*	*	*
=42	=42	=42	=42	=42	=42	=42	=42	=42	=42	=42	=42
4C/	.	8r	.	4r	.	2.ryy	8d\L	cae-	2.ryy	2.ryy	2.ryy
.	.	8e 8G/	.	.	.	.	8c\J	.	.	.	.
*	*	*tremolo	*	*	*	*	*	*	*	*	*
4CC/	.	8eL 8G/	.	16r	.	.	4c\	-li	.	.	.
.	.	.	.	16cc\LL	.	.	.	.	.	.	.
.	.	8e 8G/	.	16dd\	.	.	.	.	.	.	.
.	.	.	.	16ee\JJ	.	.	.	.	.	.	.
4r	.	8e 8G/	.	16ff\LL	.	.	4r	.	.	.	.
.	.	.	.	16gg\	.	.	.	.	.	.	.
.	.	8eJ 8G/	.	16aa\	.	.	.	.	.	.	.
.	.	.	.	16bb-\JJ	.	.	.	.	.	.	.
*	*	*Xtremolo	*	*	*	*	*	*	*	*	*
=43	=43	=43	=43	=43	=43	=43	=43	=43	=43	=43	=43
8CC/L	.	16G/LL	.	4.ccc\	.	2.ryy	1.r	.	2.ryy	2.ryy	2.ryy
.	.	16e/	.	.	.	.	.	.	.	.	.
8C/	.	16g/	.	.	.	.	.	.	.	.	.
.	.	16e/JJ	.	.	.	.	.	.	.	.	.
*	*	*rep	*	*	*	*	*	*	*	*	*
8C/	.	16G/LL	.	.	.	.	.	.	.	.	.
.	.	16e/	.	.	.	.	.	.	.	.	.
8C/	.	16g/	.	24bb-\LL	.	.	.	.	.	.	.
.	.	.	.	24aa\	.	.	.	.	.	.	.
.	.	16e/JJ	.	.	.	.	.	.	.	.	.
.	.	.	.	24gg\JJ	.	.	.	.	.	.	.
*	*	*Xrep	*	*	*	*	*	*	*	*	*
*	*	*rep	*	*	*	*	*	*	*	*	*
8E/	.	16G/LL	.	16aa\LL	.	.	.	.	.	.	.
.	.	16e/	.	16gg\	.	.	.	.	.	.	.
8C/J	.	16g/	.	16ff\	.	.	.	.	.	.	.
.	.	16e/JJ	.	16ee\JJ	.	.	.	.	.	.	.
*	*	*Xrep	*	*	*	*	*	*	*	*	*
!	!	!	!	!LO:LB:g=original	!	!	!	!	!	!	!
=44	=44	=44	=44	=44	=44	=44	=44	=44	=44	=44	=44
4G\	.	16G/LL	.	16gg\LL	.	2.ryy	.	.	2.ryy	2.ryy	2.ryy
.	.	16B-/	.	16ff\	.	.	.	.	.	.	.
.	.	16d/	.	16ee\	.	.	.	.	.	.	.
.	.	16B-/JJ	.	16dd\JJ	.	.	.	.	.	.	.
!LO:TX:t=P:problem=mixed beam	!	!	!	!	!	!	!	!	!	!	!
16GG/LL	.	16G/LL	.	4dd\	.	.	.	.	.	.	.
16G\	.	16g/	.	.	.	.	.	.	.	.	.
!LO:SIC:v:s=16F#\	!	!	!	!	!	!	!	!	!	!	!
16F\	.	16f#X/	.	.	.	.	.	.	.	.	.
16G\JJ	.	16g/JJ	.	.	.	.	.	.	.	.	.
16A\LL	.	16a/LL	.	4r	.	.	.	.	.	.	.
16G\	.	16g/	.	.	.	.	.	.	.	.	.
16F#X\	.	16f#/	.	.	.	.	.	.	.	.	.
16G\JJ	.	16g/JJ	.	.	.	.	.	.	.	.	.
!	!	!	!	!	!	!	!LO:LB:g=original	!	!	!	!
=45	=45	=45	=45	=45	=45	=45	=45	=45	=45	=45	=45
4GG/	.	4g/	.	8r	.	2.ryy	8G/	Stel-	2.ryy	2.ryy	2.ryy
.	.	.	.	8f#X/	.	.	8A/	-la	.	.	.
*	*	*	*	*	*	*	*	*ij	*	*	*
4r	.	4r	.	8g/L	.	.	8B-\	Stel-	.	.	.
.	.	.	.	8a/	.	.	8c\	-la	.	.	.
*	*	*	*	*	*	*	*	*Xij	*	*	*
4r	.	4r	.	8b-/	.	.	8d\	ma-	.	.	.
.	.	.	.	8cc/J	.	.	8e\	-tu-	.	.	.
!	!	!LO:LB:g=original	!	!	!	!	!	!	!	!	!
=46	=46	=46	=46	=46	=46	=46	=46	=46	=46	=46	=46
*2\right	*	*2\right	*	*	*	*	*2\right	*	*	*	*
2G#X\	7 5 3	2b-\	.	2dd\	.	2.ryy	2f\	-ti-	2.ryy	2.ryy	2.ryy
4A\	5 3	4a\	.	4cc\	.	.	4e\	-na	.	.	.
=47	=47	=47	=47	=47	=47	=47	=47	=47	=47	=47	=47
4F\	6 3	4fn/	.	4a/	.	2.ryy	16A\LL	O-	2.ryy	2.ryy	2.ryy
.	.	.	.	.	.	.	16B-\JJ	.	.	.	.
.	.	.	.	.	.	.	16c\	-ra	.	.	.
.	.	.	.	.	.	.	16d\	pro	.	.	.
!LO:TX:t=P:problem=mixed beam	!	!	!	!	!	!	!	!	!	!	!
8G\L	6 4	8e/L	.	8g/L	.	.	4c\	no-	.	.	.
8G\	.	8e/	.	8g/	.	.	.	.	.	.	.
8GG/	5 3	8d/	.	8fn/	.	.	4B-\	.	.	.	.
8GG/J	.	8d/J	.	8f/J	.	.	.	.	.	.	.
!LO:LB:g=original	!	!	!	!	!	!	!	!	!	!	!
=48	=48	=48	=48	=48	=48	=48	=48	=48	=48	=48	=48
4AA/	3	4c/	.	16e\LL	.	2.ryy	4c\	-bis	2.ryy	2.ryy	2.ryy
.	.	.	.	16cc\	.	.	.	.	.	.	.
.	.	.	.	16dd\	.	.	.	.	.	.	.
.	.	.	.	16ee\JJ	.	.	.	.	.	.	.
4r	.	4r	.	16ff\LL	.	.	4r	.	.	.	.
.	.	.	.	16gg\	.	.	.	.	.	.	.
.	.	.	.	16aa\	.	.	.	.	.	.	.
.	.	.	.	16bb-\JJ	.	.	.	.	.	.	.
4r	.	4r	.	8ccc\	.	.	4r	.	.	.	.
.	.	.	.	8r	.	.	.	.	.	.	.
=49	=49	=49	=49	=49	=49	=49	=49	=49	=49	=49	=49
!	!	!	!	!	!	!	!LO:TX:t=P:problem=takty nr 49-52 oznaczone znakiem repetycji	!	!	!	!
4GG/	.	4G/	.	8r	.	2.ryy	8G/yy	Stel-	2.ryy	2.ryy	2.ryy
.	.	.	.	8f#X/	.	.	8A/yy	-la	.	.	.
*	*	*	*	*	*	*	*	*ij	*	*	*
4r	.	4r	.	8g/L	.	.	8B-\yy	Stel-	.	.	.
.	.	.	.	8a/	.	.	8c\yy	-la	.	.	.
*	*	*	*	*	*	*	*	*Xij	*	*	*
4r	.	4r	.	8b-/	.	.	8d\yy	ma-	.	.	.
.	.	.	.	8cc/J	.	.	8e\yy	-tu-	.	.	.
=50	=50	=50	=50	=50	=50	=50	=50	=50	=50	=50	=50
2G#X\	7 5 3	2b-\	.	2dd\	.	2.ryy	2f\yy	-ti-	2.ryy	2.ryy	2.ryy
4A\	5 3	4a\	.	4cc\	.	.	4e\yy	-na	.	.	.
!	!	!	!	!LO:LB:g=original	!	!	!	!	!	!	!
=51	=51	=51	=51	=51	=51	=51	=51	=51	=51	=51	=51
4F\	6 3	4f/	.	4a/	.	2.ryy	16A\LLyy	O-	2.ryy	2.ryy	2.ryy
.	.	.	.	.	.	.	16B-\JJyy	.	.	.	.
.	.	.	.	.	.	.	16c\yy	-ra	.	.	.
.	.	.	.	.	.	.	16d\yy	pro	.	.	.
!LO:TX:t=P:problem=mixed beam	!	!	!	!	!	!	!	!	!	!	!
8G\L	6 4	8e/L	.	8g/L	.	.	4c\yy	no-	.	.	.
8G\	.	8e/	.	8g/	.	.	.	.	.	.	.
8GG/	7 3	8d/	.	8b-/	.	.	4B-\yy	.	.	.	.
8GG/J	.	8d/J	.	8b-/J	.	.	.	.	.	.	.
=52	=52	=52	=52	=52	=52	=52	=52	=52	=52	=52	=52
*tremolo	*	*tremolo	*	*	*	*	*	*	*	*	*
!	!	!	!LO:DY:t=for.:rj	!	!	!	!	!	!	!	!
8C/L	8 3	8eL 8G/	f	8.cc\L	.	2.ryy	4c\yy	-bis	2.ryy	2.ryy	2.ryy
8C/	.	8e 8G/	.	.	.	.	.	.	.	.	.
.	.	.	.	16aa\Jk	.	.	.	.	.	.	.
8C/	.	8e 8G/	.	16ff#X\LL	.	.	4ryy	.	.	.	.
.	.	.	.	16gg\	.	.	.	.	.	.	.
8C/	.	8e 8G/	.	16ff#\	.	.	.	.	.	.	.
.	.	.	.	16gg\JJ	.	.	.	.	.	.	.
8C/	.	8e 8G/	.	16ffn\LL	.	.	4ryy	.	.	.	.
.	.	.	.	16dd\	.	.	.	.	.	.	.
8C/J	.	8eJ 8G/	.	16ee\	.	.	.	.	.	.	.
.	.	.	.	16cc\JJ	.	.	.	.	.	.	.
*Xtremolo	*	*Xtremolo	*	*	*	*	*	*	*	*	*
=53	=53	=53	=53	=53	=53	=53	=53	=53	=53	=53	=53
!LO:TX:t=P:problem=mixed beam	!	!LO:TX:t=P:problem=mixed beam	!	!	!	!	!LO:TX:a:t=10:color=grey	!	!	!	!
8D/L	6 4 3	8.fL 8.G/	.	8.cc\L	.	2.ryy	0.r	.	2.ryy	2.ryy	2.ryy
8D/	.	.	.	.	.	.	.	.	.	.	.
.	.	16ff\Jk	.	16b-\Jk	.	.	.	.	.	.	.
8GG/	.	16cc#X\LL	.	4b-\	.	.	.	.	.	.	.
.	.	16dd\	.	.	.	.	.	.	.	.	.
8GG/	.	16cc#\	.	.	.	.	.	.	.	.	.
.	.	16dd\JJ	.	.	.	.	.	.	.	.	.
8G\	.	16ccn\LL	.	4r	.	.	.	.	.	.	.
.	.	16b-\	.	.	.	.	.	.	.	.	.
8G\J	.	16a\	.	.	.	.	.	.	.	.	.
.	.	16g\JJ	.	.	.	.	.	.	.	.	.
=54	=54	=54	=54	=54	=54	=54	=54	=54	=54	=54	=54
*tremolo	*	*	*	*	*	*	*	*	*	*	*
8C/L	8	8ccL 8e/	.	8.cc\L	.	2.ryy	.	.	2.ryy	2.ryy	2.ryy
8C/	.	8eJ 8G/	.	.	.	.	.	.	.	.	.
.	.	.	.	16aa\Jk	.	.	.	.	.	.	.
*	*	*tremolo	*	*	*	*	*	*	*	*	*
8C/	.	8eL 8G/	.	16ff#X\LL	.	.	.	.	.	.	.
.	.	.	.	16gg\	.	.	.	.	.	.	.
8C/	.	8e 8G/	.	16ff#\	.	.	.	.	.	.	.
.	.	.	.	16gg\JJ	.	.	.	.	.	.	.
8C/	.	8e 8G/	.	16ffn\LL	.	.	.	.	.	.	.
.	.	.	.	16dd\	.	.	.	.	.	.	.
8C/J	.	8eJ 8G/	.	16ee\	.	.	.	.	.	.	.
.	.	.	.	16cc\JJ	.	.	.	.	.	.	.
*Xtremolo	*	*Xtremolo	*	*	*	*	*	*	*	*	*
=55	=55	=55	=55	=55	=55	=55	=55	=55	=55	=55	=55
!LO:TX:t=P:problem=mixed beam	!	!LO:TX:t=P:problem=mixed beam	!	!	!	!	!	!	!	!	!
8D/L	6 4 3	8.fL 8.G/	.	8.cc\L	.	2.ryy	.	.	2.ryy	2.ryy	2.ryy
8D/	.	.	.	.	.	.	.	.	.	.	.
.	.	16ff\Jk	.	16b-\Jk	.	.	.	.	.	.	.
8GG/	.	16cc#X\LL	.	4b-\	.	.	.	.	.	.	.
.	.	16dd\	.	.	.	.	.	.	.	.	.
8GG/	.	16cc#\	.	.	.	.	.	.	.	.	.
.	.	16dd\JJ	.	.	.	.	.	.	.	.	.
!	!	!LO:LB:g=original	!	!	!	!	!	!	!	!	!
8G\	.	16ccn\LL	.	4r	.	.	.	.	.	.	.
.	.	16b-\	.	.	.	.	.	.	.	.	.
8G\J	.	16a\	.	.	.	.	.	.	.	.	.
.	.	16g\JJ	.	.	.	.	.	.	.	.	.
=56	=56	=56	=56	=56	=56	=56	=56	=56	=56	=56	=56
*tremolo	*	*tremolo	*	*	*	*	*	*	*	*	*
8E\L	6 3	8ccL 8g/	.	8.cc\L	.	2.ryy	.	.	2.ryy	2.ryy	2.ryy
8E\	.	8cc 8g/	.	.	.	.	.	.	.	.	.
.	.	.	.	16ccc\Jk	.	.	.	.	.	.	.
8E\	.	8cc 8g/	.	16bb-\LL	.	.	.	.	.	.	.
.	.	.	.	16ccc\	.	.	.	.	.	.	.
8E\	.	8cc 8g/	.	16bb-\	.	.	.	.	.	.	.
.	.	.	.	16ccc\JJ	.	.	.	.	.	.	.
8E\	.	8cc 8g/	.	16bb-\LL	.	.	.	.	.	.	.
.	.	.	.	16ccc\	.	.	.	.	.	.	.
8E\J	.	8ccJ 8g/	.	16gg\	.	.	.	.	.	.	.
.	.	.	.	16ee\JJ	.	.	.	.	.	.	.
*	*	*Xtremolo	*	*	*	*	*	*	*	*	*
=57	=57	=57	=57	=57	=57	=57	=57	=57	=57	=57	=57
8F\L	6 3	8a/L	.	8.dd\L	.	2.ryy	0.r	.	2.ryy	2.ryy	2.ryy
8F\	.	8dJ 8A/	.	.	.	.	.	.	.	.	.
.	.	.	.	16aa\Jk	.	.	.	.	.	.	.
*	*	*tremolo	*	*	*	*	*	*	*	*	*
!	!	!	!	!LO:LB:g=original	!	!	!	!	!	!	!
8F\	.	8dL 8A/	.	16gg#X\LL	.	.	.	.	.	.	.
.	.	.	.	16aa\	.	.	.	.	.	.	.
8F\	.	8d 8A/	.	16gg#\	.	.	.	.	.	.	.
.	.	.	.	16aa\JJ	.	.	.	.	.	.	.
8F\	.	8d 8A/	.	16gg#\LL	.	.	.	.	.	.	.
.	.	.	.	16aa\	.	.	.	.	.	.	.
8F\J	.	8dJ 8A/	.	16ff\	.	.	.	.	.	.	.
.	.	.	.	16dd\JJ	.	.	.	.	.	.	.
*	*	*Xtremolo	*	*	*	*	*	*	*	*	*
=58	=58	=58	=58	=58	=58	=58	=58	=58	=58	=58	=58
8G\L	4	8eL 8G/	.	16cc\LL	.	2.ryy	.	.	2.ryy	2.ryy	2.ryy
.	.	.	.	16b-\	.	.	.	.	.	.	.
8G\	.	8eJ 8G/	.	16cc\	.	.	.	.	.	.	.
.	.	.	.	16g\JJ	.	.	.	.	.	.	.
*	*	*tremolo	*	*	*	*	*	*	*	*	*
8G\	.	8fL 8G/	.	2ddT\	.	.	.	.	.	.	.
8G\J	.	8f 8G/	.	.	.	.	.	.	.	.	.
*Xtremolo	*	*	*	*	*	*	*	*	*	*	*
8GG/L	3	8f 8G/	.	.	.	.	.	.	.	.	.
8GG/J	.	8fJ 8G/	.	.	.	.	.	.	.	.	.
*	*	*Xtremolo	*	*	*	*	*	*	*	*	*
=59	=59	=59	=59	=59	=59	=59	=59	=59	=59	=59	=59
8C/L	.	8e/L	.	8.cc\L	.	2.ryy	.	.	2.ryy	2.ryy	2.ryy
8E/J	6 3	8ccJ 8g/	.	.	.	.	.	.	.	.	.
.	.	.	.	16ccc\Jk	.	.	.	.	.	.	.
*tremolo	*	*tremolo	*	*	*	*	*	*	*	*	*
8E\L	.	8ccL 8g/	.	16bb-\LL	.	.	.	.	.	.	.
.	.	.	.	16ccc\	.	.	.	.	.	.	.
8E\	.	8cc 8g/	.	16bb-\	.	.	.	.	.	.	.
.	.	.	.	16ccc\JJ	.	.	.	.	.	.	.
8E\	.	8cc 8g/	.	16bb-\LL	.	.	.	.	.	.	.
.	.	.	.	16ccc\	.	.	.	.	.	.	.
8E\J	.	8ccJ 8g/	.	16gg\	.	.	.	.	.	.	.
.	.	.	.	16ee\JJ	.	.	.	.	.	.	.
*	*	*Xtremolo	*	*	*	*	*	*	*	*	*
!LO:LB:g=original	!	!	!	!	!	!	!	!	!	!	!
=60	=60	=60	=60	=60	=60	=60	=60	=60	=60	=60	=60
8F\L	6 3	8a/L	.	8.dd\L	.	2.ryy	.	.	2.ryy	2.ryy	2.ryy
8F\	.	8dJ 8A/	.	.	.	.	.	.	.	.	.
.	.	.	.	16aa\Jk	.	.	.	.	.	.	.
*	*	*tremolo	*	*	*	*	*	*	*	*	*
8F\	.	8fL 8A/	.	16gg#X\LL	.	.	.	.	.	.	.
.	.	.	.	16aa\	.	.	.	.	.	.	.
8F\	.	8f 8A/	.	16gg#\	.	.	.	.	.	.	.
.	.	.	.	16aa\JJ	.	.	.	.	.	.	.
8F\	.	8f 8A/	.	16gg#\LL	.	.	.	.	.	.	.
.	.	.	.	16aa\	.	.	.	.	.	.	.
8F\J	.	8fJ 8A/	.	16ff\	.	.	.	.	.	.	.
.	.	.	.	16dd\JJ	.	.	.	.	.	.	.
=61	=61	=61	=61	=61	=61	=61	=61	=61	=61	=61	=61
8G\L	6 4	8eL 8G/	.	16cc\LL	.	2.ryy	1.r	.	2.ryy	2.ryy	2.ryy
.	.	.	.	16ee\	.	.	.	.	.	.	.
8G\	.	8e 8G/	.	16gg\	.	.	.	.	.	.	.
.	.	.	.	16ccc\JJ	.	.	.	.	.	.	.
8G\	.	8e 8G/	.	8.cc\L	.	.	.	.	.	.	.
8G\J	.	8eJ 8G/	.	.	.	.	.	.	.	.	.
*Xtremolo	*	*Xtremolo	*	*	*	*	*	*	*	*	*
.	.	.	.	16dd\Jk	.	.	.	.	.	.	.
8GG/L	7 3	8fL 8G/	.	4ddT\	.	.	.	.	.	.	.
8GG/J	.	8fJ 8G/	.	.	.	.	.	.	.	.	.
=62	=62	=62	=62	=62	=62	=62	=62	=62	=62	=62	=62
!	!	!	!	!LO:TX:t=P:problem=mixed beam	!	!	!	!	!	!	!
4C/	.	8.eL 8.G/	.	8.cc\L	.	2.ryy	.	.	2.ryy	2.ryy	2.ryy
.	.	16c/Jk	.	16c/Jk	.	.	.	.	.	.	.
16CC/LL	.	4c/	.	4c/	.	.	.	.	.	.	.
16C/	.	.	.	.	.	.	.	.	.	.	.
16GG/	.	.	.	.	.	.	.	.	.	.	.
16EE/JJ	.	.	.	.	.	.	.	.	.	.	.
4CC/	.	4r	.	4r	.	.	.	.	.	.	.
=63	=63	=63	=63	=63	=63	=63	=63	=63	=63	=63	=63
4CC/	.	8r	.	2.r	.	2.ryy	2e\	Fe-	2.ryy	2.ryy	2.ryy
.	.	8e 8G/	.	.	.	.	.	.	.	.	.
*	*	*tremolo	*	*	*	*	*	*	*	*	*
4C/	.	8eL 8G/	.	.	.	.	.	.	.	.	.
.	.	8e 8G/	.	.	.	.	.	.	.	.	.
4r	.	8e 8G/	.	.	.	.	8d\	-de-	.	.	.
.	.	8eJ 8G/	.	.	.	.	8c\	-ris	.	.	.
*	*	*Xtremolo	*	*	*	*	*	*	*	*	*
!	!	!	!	!LO:LB:g=original	!	!	!	!	!	!	!
=64	=64	=64	=64	=64	=64	=64	=64	=64	=64	=64	=64
4DD/	6 3	8r	.	4r	.	2.ryy	8c\L	ar-	2.ryy	2.ryy	2.ryy
.	.	8f 8G/	.	.	.	.	8Bn\J	.	.	.	.
*	*	*tremolo	*	*	*	*	*	*	*	*	*
4D\	.	8fL 8G/	.	16r	.	.	4B\	-ca	.	.	.
.	.	.	.	16gg\LL	.	.	.	.	.	.	.
.	.	8f 8G/	.	16ff#X\	.	.	.	.	.	.	.
.	.	.	.	16gg\JJ	.	.	.	.	.	.	.
4r	.	8f 8G/	.	16aa\LL	.	.	4r	.	.	.	.
.	.	.	.	16gg\	.	.	.	.	.	.	.
.	.	8fJ 8G/	.	16ff#\	.	.	.	.	.	.	.
.	.	.	.	16gg\JJ	.	.	.	.	.	.	.
*	*	*Xtremolo	*	*	*	*	*	*	*	*	*
!	!	!	!	!	!	!	!LO:LB:g=original	!	!	!	!
=65	=65	=65	=65	=65	=65	=65	=65	=65	=65	=65	=65
4BB-/	.	8r	.	4gg\	.	2.ryy	2f\	Ja-	2.ryy	2.ryy	2.ryy
.	.	8f 8G/	.	.	.	.	.	.	.	.	.
*	*	*tremolo	*	*	*	*	*	*	*	*	*
4GG/	.	8fL 8G/	.	4r	.	.	.	.	.	.	.
.	.	8f 8G/	.	.	.	.	.	.	.	.	.
8r	.	8f 8G/	.	4r	.	.	8e\	-nu-	.	.	.
8BB-/	.	8fJ 8G/	.	.	.	.	8d\	-a	.	.	.
*	*	*Xtremolo	*	*	*	*	*	*	*	*	*
!	!	!LO:LB:g=original	!	!	!	!	!	!	!	!	!
=66	=66	=66	=66	=66	=66	=66	=66	=66	=66	=66	=66
4C/	.	8r	.	4r	.	2.ryy	8d\L	Cae-	2.ryy	2.ryy	2.ryy
.	.	8e 8G/	.	.	.	.	8c\J	.	.	.	.
*	*	*tremolo	*	*	*	*	*	*	*	*	*
4CC/	.	8eL 8G/	.	16r	.	.	4c\	-li	.	.	.
.	.	.	.	16gg\LL	.	.	.	.	.	.	.
.	.	8e 8G/	.	16ff#X\	.	.	.	.	.	.	.
.	.	.	.	16gg\JJ	.	.	.	.	.	.	.
4r	.	8e 8G/	.	16aa\LL	.	.	4r	.	.	.	.
.	.	.	.	16gg\	.	.	.	.	.	.	.
.	.	8eJ 8G/	.	16ffn\	.	.	.	.	.	.	.
.	.	.	.	16dd\JJ	.	.	.	.	.	.	.
*	*	*Xtremolo	*	*	*	*	*	*	*	*	*
=67	=67	=67	=67	=67	=67	=67	=67	=67	=67	=67	=67
!LO:TX:t=P:problem=mixed beam	!	!	!	!	!	!	!	!	!	!	!
8CC/L	6 -5 3	8g/L	.	4cc\	.	2.ryy	4.g\	Stel-	2.ryy	2.ryy	2.ryy
8E\J	.	8c/	.	.	.	.	.	.	.	.	.
*tremolo	*	*	*	*	*	*	*	*	*	*	*
8E\L	.	8B-X/	.	4r	.	.	.	.	.	.	.
8E\	.	8c/	.	.	.	.	8e\	-la	.	.	.
8E\	.	8B-/	.	4r	.	.	8c\	ma-	.	.	.
8E\J	.	8c/J	.	.	.	.	8B-X\	-tu-	.	.	.
*Xtremolo	*	*	*	*	*	*	*	*	*	*	*
=68	=68	=68	=68	=68	=68	=68	=68	=68	=68	=68	=68
*	*	*tremolo	*	*	*	*	*	*	*	*	*
!LO:TX:t=P:problem=mixed beam	!	!	!	!	!	!	!	!	!	!	!
8FF/L	5 3	8A/L	.	4r	.	2.ryy	4A\	-ti-	2.ryy	2.ryy	2.ryy
8F\	.	8c/	.	.	.	.	.	.	.	.	.
8F\	.	8A/	.	16f/LL	.	.	4c\	-na	.	.	.
.	.	.	.	16g/	.	.	.	.	.	.	.
8F\	.	8c/	.	16a/	.	.	.	.	.	.	.
.	.	.	.	16b-X/JJ	.	.	.	.	.	.	.
8A\	6 3	8A/	.	16cc\LL	.	.	4r	.	.	.	.
.	.	.	.	16dd\	.	.	.	.	.	.	.
8A\J	.	8c/J	.	16ee\	.	.	.	.	.	.	.
.	.	.	.	16ff\JJ	.	.	.	.	.	.	.
*	*	*Xtremolo	*	*	*	*	*	*	*	*	*
=69	=69	=69	=69	=69	=69	=69	=69	=69	=69	=69	=69
!LO:TX:t=P:problem=mixed beam	!	!	!	!	!	!	!	!	!	!	!
8BB-/L	6 3	8d/L	.	4.dd\	.	2.ryy	4.d\	O-	2.ryy	2.ryy	2.ryy
8B-\	.	8g/	.	.	.	.	.	.	.	.	.
8B-\	.	8d/	.	.	.	.	.	.	.	.	.
8B-\	.	8g/	.	8gg\L	.	.	8B-\	.	.	.	.
8B-\	.	8d/	.	8bb-X\	.	.	8G/	-ra	.	.	.
8Bn\J	5 3	8f/J	.	8aa\J	.	.	8F/	pro	.	.	.
!LO:LB:g=original	!	!	!	!	!	!	!	!	!	!	!
=70	=70	=70	=70	=70	=70	=70	=70	=70	=70	=70	=70
4c\	4	4e/	.	4aa\	.	2.ryy	4F/	no-	2.ryy	2.ryy	2.ryy
8D\L	3	4c/	.	4gg\	.	.	4E/	-bis	.	.	.
16c\L	.	.	.	.	.	.	.	.	.	.	.
16d\JJ	.	.	.	.	.	.	.	.	.	.	.
16c\LL	.	4r	.	4r	.	.	4r	.	.	.	.
16B-X\	.	.	.	.	.	.	.	.	.	.	.
16A\	.	.	.	.	.	.	.	.	.	.	.
16G\JJ	.	.	.	.	.	.	.	.	.	.	.
!	!	!	!	!	!	!	!LO:LB:g=original	!	!	!	!
=71	=71	=71	=71	=71	=71	=71	=71	=71	=71	=71	=71
!LO:TX:t=P:problem=mixed beam	!	!	!	!	!	!	!	!	!	!	!
8FF/L	.	4.c/	.	4.a/	.	2.ryy	4.c\	Ro-	2.ryy	2.ryy	2.ryy
8F\J	.	.	.	.	.	.	.	.	.	.	.
*tremolo	*	*	*	*	*	*	*	*	*	*	*
8F\L	.	.	.	.	.	.	.	.	.	.	.
8F\	.	8A/L	.	8f/L	.	.	8A\	.	.	.	.
8F\	.	8.c/	.	8a/	.	.	8c\L	-sa	.	.	.
8F\J	.	.	.	8f/J	.	.	8A\J	.	.	.	.
.	.	16A/Jk	.	.	.	.	.	.	.	.	.
*Xtremolo	*	*	*	*	*	*	*	*	*	*	*
=72	=72	=72	=72	=72	=72	=72	=72	=72	=72	=72	=72
!LO:TX:t=P:problem=mixed beam	!	!	!	!	!	!	!	!	!	!	!
8FF/L	.	8.c/L	.	8.a/L	.	2.ryy	8.c\	mis-	2.ryy	2.ryy	2.ryy
8F\	.	.	.	.	.	.	.	.	.	.	.
.	.	16A/Jk	.	16f/Jk	.	.	16A\	-ti-	.	.	.
8F\	.	8c/L	.	8a/L	.	.	4c\	-ca	.	.	.
8F\	.	8a/J	.	8cc/J	.	.	.	.	.	.	.
8A\	6 3	16a/LL	.	16ff\LL	.	.	4r	.	.	.	.
.	.	16a/	.	16cc\	.	.	.	.	.	.	.
8A\J	.	16g/	.	16b-\	.	.	.	.	.	.	.
.	.	16f/JJ	.	16a\JJ	.	.	.	.	.	.	.
!	!	!	!	!LO:LB:g=original	!	!	!	!	!	!	!
=73	=73	=73	=73	=73	=73	=73	=73	=73	=73	=73	=73
8B-\L	6 3	4B-/	.	4g/	.	2.ryy	16E/LL	tur-	2.ryy	2.ryy	2.ryy
.	.	.	.	.	.	.	16G/JJ	.	.	.	.
8B-\	.	.	.	.	.	.	16B-\LL	-ris	.	.	.
.	.	.	.	.	.	.	16d\JJ	.	.	.	.
*	*	*	*	*	*	*	*	*ij	*	*	*
8A\	3	8.c/L	.	8.a/L	.	.	8.c\L	tur-	.	.	.
8d\	.	.	.	.	.	.	.	.	.	.	.
.	.	16A/Jk	.	16f/Jk	.	.	16A\Jk	.	.	.	.
8B-\	3	16c/LL	.	16a/LL	.	.	16c\LL	-ris	.	.	.
*	*	*	*	*	*	*	*	*Xij	*	*	*
.	3	16B-/	.	16g/	.	.	16B-\JJ	.	.	.	.
8c\J	.	16g/	.	16b-/	.	.	16G/LL	da-	.	.	.
.	.	16e/JJ	.	16g/JJ	.	.	16E/JJ	.	.	.	.
!	!	!LO:LB:g=original	!	!	!	!	!	!	!	!	!
=74	=74	=74	=74	=74	=74	=74	=74	=74	=74	=74	=74
4F\	.	8.g/L	.	8.b-/L	.	2.ryy	8.G/	-vi-	2.ryy	2.ryy	2.ryy
.	.	16f/Jk	.	16a/Jk	.	.	16F/	-di-	.	.	.
4FF/	.	4f/	.	4a/	.	.	4F/	-ca	.	.	.
4r	.	4r	.	16dd\LL	.	.	16f\LL	tu-	.	.	.
.	.	.	.	16cc\	.	.	16e\JJ	.	.	.	.
.	.	.	.	16b-\	.	.	16d\LL	-ris	.	.	.
.	.	.	.	16a\JJ	.	.	16c\JJ	.	.	.	.
=75	=75	=75	=75	=75	=75	=75	=75	=75	=75	=75	=75
*	*	*	*	*	*	*	*	*ij	*	*	*
!LO:TX:t=P:problem=mixed beam	!	!	!	!	!	!	!	!	!	!	!
8FF/L	.	4.c/	.	4.a/	.	2.ryy	4.c\	tu-	2.ryy	2.ryy	2.ryy
8F\	.	.	.	.	.	.	.	.	.	.	.
8A\	.	.	.	.	.	.	.	.	.	.	.
8d\J	5 3	16A/LL	.	16f/LL	.	.	16A\LL	.	.	.	.
.	.	16c/JJ	.	16a/JJ	.	.	16c\JJ	.	.	.	.
!	!	!	!	!	!	!	!LO:LB:g=original	!	!	!	!
8B-\L	6	16B-/LL	.	16dd\LL	.	.	16B-\LL	-ris	.	.	.
*	*	*	*	*	*	*	*	*Xij	*	*	*
.	.	16g/	.	16b-\	.	.	16G\JJ	.	.	.	.
8c\J	3	16f/	.	16a\	.	.	16F/LL	e-	.	.	.
.	.	16e/JJ	.	16g\JJ	.	.	16E/JJ	.	.	.	.
=76	=76	=76	=76	=76	=76	=76	=76	=76	=76	=76	=76
4F\	.	8.g/L	.	8.b-\L	.	2.ryy	8.G/	-bur-	2.ryy	2.ryy	2.ryy
.	.	16f/Jk	.	16a\Jk	.	.	16F/	-ne-	.	.	.
!LO:TX:t=P:problem=mixed beam	!	!LO:TX:t=P:problem=mixed beam	!	!	!	!	!	!	!	!	!
16FF/LL	.	16f/LL	.	16a\LL	.	.	4F/	-a	.	.	.
16F\	.	16ff\	.	16ff\	.	.	.	.	.	.	.
16C\	.	16cc\	.	16cc\	.	.	.	.	.	.	.
16AA\JJ	.	16a\JJ	.	16a\JJ	.	.	.	.	.	.	.
8FF/	.	4f/	.	4f/	.	.	4r	.	.	.	.
8r	.	.	.	.	.	.	.	.	.	.	.
=77	=77	=77	=77	=77	=77	=77	=77	=77	=77	=77	=77
*	*	*tremolo	*	*	*	*	*	*	*	*	*
!LO:TX:t=P:problem=mixed beam	!	!	!	!	!	!	!	!	!	!	!
8FF/L	.	8A/L	.	16f/LL	.	2.ryy	8r	.	2.ryy	2.ryy	2.ryy
.	.	.	.	16A/	.	.	.	.	.	.	.
8F\J	.	8c/	.	16c/	.	.	8F/	do-	.	.	.
.	.	.	.	16f/JJ	.	.	.	.	.	.	.
*tremolo	*	*	*	*	*	*	*	*	*	*	*
8F\L	.	8A/	.	8a/L	.	.	4.A\	-mus	.	.	.
8F\	.	8c/	.	8f/	.	.	.	.	.	.	.
8F\	.	8A/	.	8c/	.	.	.	.	.	.	.
8F\J	.	8c/J	.	8a/J	.	.	8c\	.	.	.	.
*Xtremolo	*	*	*	*	*	*	*	*	*	*	*
!LO:LB:g=original	!	!	!	!	!	!	!	!	!	!	!
=78	=78	=78	=78	=78	=78	=78	=78	=78	=78	=78	=78
4G\	.	8B-/L	.	8g/L	.	2.ryy	8B-\	au-	2.ryy	2.ryy	2.ryy
.	.	8c/	.	8e/J	.	.	16G/LL	-re-	.	.	.
.	.	.	.	.	.	.	16A/JJ	.	.	.	.
!	!	!	!	!LO:TX:t=P:problem=mixed beam	!	!	!	!	!	!	!
4C/	.	8B-/	.	16c/LL	.	.	4E/	-a	.	.	.
.	.	.	.	16cc\	.	.	.	.	.	.	.
.	.	8c/	.	16ee\	.	.	.	.	.	.	.
.	.	.	.	16gg\JJ	.	.	.	.	.	.	.
4r	.	8B-/	.	16ff\LL	.	.	4r	.	.	.	.
.	.	.	.	16ee\	.	.	.	.	.	.	.
.	.	8c/J	.	16dd\	.	.	.	.	.	.	.
.	.	.	.	16cc\JJ	.	.	.	.	.	.	.
=79	=79	=79	=79	=79	=79	=79	=79	=79	=79	=79	=79
!LO:TX:t=P:problem=mixed beam	!	!	!	!	!	!	!	!	!	!	!
8FF/L	.	8A/L	.	16a\LL	.	2.ryy	8r	.	2.ryy	2.ryy	2.ryy
.	.	.	.	16cc\	.	.	.	.	.	.	.
8F\J	.	8c/	.	16ff\	.	.	8F/	Fe-	.	.	.
.	.	.	.	16aa\JJ	.	.	.	.	.	.	.
*tremolo	*	*	*	*	*	*	*	*	*	*	*
8F\L	.	8A/	.	8.ccc\L	.	.	4.A\	-de-	.	.	.
8F\	.	8c/	.	.	.	.	.	.	.	.	.
.	.	.	.	16aa\Jk	.	.	.	.	.	.	.
!	!	!	!	!LO:LB:g=original	!	!	!	!	!	!	!
8F\	.	8A/	.	16ff\LL	.	.	.	.	.	.	.
.	.	.	.	16aa\	.	.	.	.	.	.	.
8F\J	.	8c/J	.	16ccc\	.	.	8c\	-ris	.	.	.
.	.	.	.	16ddd\JJ	.	.	.	.	.	.	.
*Xtremolo	*	*	*	*	*	*	*	*	*	*	*
=80	=80	=80	=80	=80	=80	=80	=80	=80	=80	=80	=80
4G\	.	8B-/L	.	8.bb-\L	.	2.ryy	8B-/L	ar-	2.ryy	2.ryy	2.ryy
.	.	8c/	.	.	.	.	16G/L	.	.	.	.
.	.	.	.	32gg\LL	.	.	16A/JJ	.	.	.	.
.	.	.	.	32aa\JJJ	.	.	.	.	.	.	.
4C/	.	8B-/	.	4ee\	.	.	4E/	-ca	.	.	.
.	.	8c/	.	.	.	.	.	.	.	.	.
4r	.	8B-/	.	4r	.	.	4r	.	.	.	.
.	.	8c/J	.	.	.	.	.	.	.	.	.
*	*	*Xtremolo	*	*	*	*	*	*	*	*	*
!	!	!	!	!	!	!	!LO:LB:g=original	!	!	!	!
=81	=81	=81	=81	=81	=81	=81	=81	=81	=81	=81	=81
4F\	.	4a 4c/	.	4a/	.	2.ryy	8r	.	2.ryy	2.ryy	2.ryy
.	.	.	.	.	.	.	8F/	Ja-	.	.	.
4r	.	4r	.	8e/L	.	.	8G/L	.	.	.	.
.	.	.	.	8f/	.	.	8A/J	.	.	.	.
4r	.	4r	.	8g/	.	.	8B-\L	-nu-	.	.	.
.	.	.	.	8a/J	.	.	8c\J	-a	.	.	.
=82	=82	=82	=82	=82	=82	=82	=82	=82	=82	=82	=82
!	!	!	!	!	!LO:DY:t=f.	!	!	!	!	!	!
2E\	7 5 3	2g/	.	2b-\	f	2.ryy	2d\	Cae-	2.ryy	2.ryy	2.ryy
4F\	5 3	4f/	.	4a\	.	.	4c\	-li	.	.	.
=83	=83	=83	=83	=83	=83	=83	=83	=83	=83	=83	=83
8BB-/L	6 3	8d/L	.	8g/L	.	2.ryy	8B-\	O-	2.ryy	2.ryy	2.ryy
8BB-/	.	8d/	.	8g/	.	.	16D/	-ra	.	.	.
.	.	.	.	.	.	.	16G/	pro	.	.	.
8C/	4	8A/	.	8f/	.	.	4F/	no-	.	.	.
8C/	.	8A/	.	8f/	.	.	.	.	.	.	.
8CC/	3	8G/	.	8e/	.	.	4E/	-bis	.	.	.
8CC/J	.	8G/J	.	8e/J	.	.	.	.	.	.	.
!	!	!LO:LB:g=original	!	!	!	!	!	!	!	!	!
=84	=84	=84	=84	=84	=84	=84	=84	=84	=84	=84	=84
4FF/	.	4A/	.	4f/	p	2.ryy	8F/	stel-	2.ryy	2.ryy	2.ryy
.	.	.	.	.	.	.	8F/	-la	.	.	.
*	*	*	*	*	*	*	*	*ij	*	*	*
4r	.	4r	.	8e/L	.	.	8G/	stel-	.	.	.
.	.	.	.	8f/	.	.	8A/	-la	.	.	.
*	*	*	*	*	*	*	*	*Xij	*	*	*
4r	.	4r	.	8g/	.	.	8B-\	ma-	.	.	.
.	.	.	.	8a/J	.	.	8c\	-tu-	.	.	.
=85	=85	=85	=85	=85	=85	=85	=85	=85	=85	=85	=85
2E\	7 5 3	2g/	.	2b-\	f	2.ryy	2d\	-ti-	2.ryy	2.ryy	2.ryy
4F\	5 3	4f/	.	4a\	.	.	4c\	-na	.	.	.
=86	=86	=86	=86	=86	=86	=86	=86	=86	=86	=86	=86
8BB-/L	6 3	8dd\L	.	8g\L	.	2.ryy	8B-\	O-	2.ryy	2.ryy	2.ryy
8BB-/	.	8dd\	.	8gg\	.	.	16D/	-ra	.	.	.
.	.	.	.	.	.	.	16G/	pro	.	.	.
!	!	!	!	!	!	!	!LO:LB:g=original	!	!	!	!
8C/	4	8cc\	.	8a\	.	.	4F/	no-	.	.	.
8C/	.	8cc\	.	8ff\	.	.	.	.	.	.	.
8CC/	3	8b-\	.	8f\	.	.	4E/	.	.	.	.
8CC/J	.	8b-\J	.	8ee\J	.	.	.	.	.	.	.
=87	=87	=87	=87	=87	=87	=87	=87	=87	=87	=87	=87
!LO:TX:t=P:problem=mixed beam	!	!	!	!LO:TX:t=P:problem=mixed beam	!	!	!	!	!	!	!
8FF/L	.	4a/	.	16ff\LL	.	2.ryy	4F/	-bis	2.ryy	2.ryy	2.ryy
.	.	.	.	16f/	.	.	.	.	.	.	.
8F\J	.	.	.	16e/	.	.	.	.	.	.	.
.	.	.	.	16f/JJ	.	.	.	.	.	.	.
*tremolo	*	*	*	*	*	*	*	*	*	*	*
8F\L	.	8r	.	16e/LL	.	.	8r	.	.	.	.
.	.	.	.	16f/	.	.	.	.	.	.	.
8F\	.	8d/L	.	16b-/	.	.	8d\L	O-	.	.	.
.	.	.	.	16f/JJ	.	.	.	.	.	.	.
8F\	.	8c/	.	16a/LL	.	.	8c\	.	.	.	.
.	.	.	.	16f/	.	.	.	.	.	.	.
8F\J	.	8Bn/J	.	16g#X/	.	.	8Bn\J	.	.	.	.
.	.	.	.	16f/JJ	.	.	.	.	.	.	.
*Xtremolo	*	*	*	*	*	*	*	*	*	*	*
!LO:LB:g=original	!	!	!	!	!	!	!	!	!	!	!
=88	=88	=88	=88	=88	=88	=88	=88	=88	=88	=88	=88
!LO:TX:t=P:problem=mixed beam	!	!	!	!	!	!	!	!	!	!	!
8FF/L	.	4c/	.	16a/LL	.	2.ryy	4c\	-ra	2.ryy	2.ryy	2.ryy
.	.	.	.	16f/	.	.	.	.	.	.	.
8F\J	.	.	.	16e/	.	.	.	.	.	.	.
.	.	.	.	16f/JJ	.	.	.	.	.	.	.
*tremolo	*	*	*	*	*	*	*	*	*	*	*
8F\L	.	8r	.	16e/LL	.	.	8r	.	.	.	.
.	.	.	.	16f/	.	.	.	.	.	.	.
*	*	*	*	*	*	*	*	*ij	*	*	*
8F\	.	8d/L	.	16b-/	.	.	8d\L	O-	.	.	.
.	.	.	.	16f/JJ	.	.	.	.	.	.	.
8F\	.	8c/	.	16a/LL	.	.	8c\	.	.	.	.
.	.	.	.	16f/	.	.	.	.	.	.	.
8F\J	.	8Bn/J	.	16g#X/	.	.	8B-\J	.	.	.	.
.	.	.	.	16f/JJ	.	.	.	.	.	.	.
*Xtremolo	*	*	*	*	*	*	*	*	*	*	*
!	!	!	!	!LO:LB:g=original	!	!	!	!	!	!	!
=89	=89	=89	=89	=89	=89	=89	=89	=89	=89	=89	=89
!LO:TX:t=P:problem=mixed beam	!	!	!	!	!	!	!	!	!	!	!
8FF/L	.	4c/	.	16a/LL	.	2.ryy	4c\	-ra	2.ryy	2.ryy	2.ryy
*	*	*	*	*	*	*	*	*Xij	*	*	*
.	.	.	.	16f/	.	.	.	.	.	.	.
8F\	.	.	.	16e/	.	.	.	.	.	.	.
.	.	.	.	16f/JJ	.	.	.	.	.	.	.
8FF/J	.	8r	.	16e/LL	.	.	8r	.	.	.	.
.	.	.	.	16f/	.	.	.	.	.	.	.
8r	.	8f/L	.	16dd/	.	.	8f\L	O-	.	.	.
.	.	.	.	16f/JJ	.	.	.	.	.	.	.
4r	.	8e/	.	16cc/LL	.	.	8e\	.	.	.	.
.	.	.	.	16f/	.	.	.	.	.	.	.
.	.	8d/J	.	16b-/	.	.	8d\J	.	.	.	.
.	.	.	.	16f/JJ	.	.	.	.	.	.	.
=90	=90	=90	=90	=90	=90	=90	=90	=90	=90	=90	=90
!LO:TX:t=P:problem=mixed beam	!	!	!	!	!	!	!	!	!	!	!
8A\L	.	8c/L	.	16a\LL	.	2.ryy	16c\LL	.	2.ryy	2.ryy	2.ryy
.	.	.	.	16f\	.	.	16A\JJ	.	.	.	.
8B-\	.	8d/	.	16dd\	.	.	16B-\	-ra	.	.	.
.	.	.	.	16b-\JJ	.	.	16G/	pro	.	.	.
8c\	.	8a 8f/	.	16a\LL	.	.	4F/	no-	.	.	.
.	.	.	.	16ff\	.	.	.	.	.	.	.
8c\	.	8a 8f/	.	16a\	.	.	.	.	.	.	.
.	.	.	.	16ff\JJ	.	.	.	.	.	.	.
8C/	.	8b-/	.	16g\LL	.	.	4E/	.	.	.	.
.	.	.	.	16ee\	.	.	.	.	.	.	.
8C/J	.	8b-/J	.	16g\	.	.	.	.	.	.	.
.	.	.	.	16ee\JJ	.	.	.	.	.	.	.
=91	=91	=91	=91	=91	=91	=91	=91	=91	=91	=91	=91
!LO:TX:t=P:problem=mixed beam	!	!	!	!LO:TX:t=P:problem=mixed beam	!	!	!	!	!	!	!
8FF/L	.	4a/	.	16ff\LL	.	2.ryy	4F/	-bis	2.ryy	2.ryy	2.ryy
.	.	.	.	16f/	.	.	.	.	.	.	.
8F\J	.	.	.	16e/	.	.	.	.	.	.	.
.	.	.	.	16f/JJ	.	.	.	.	.	.	.
*tremolo	*	*	*	*	*	*	*	*	*	*	*
8F\L	.	8r	.	16e/LL	.	.	8r	.	.	.	.
.	.	.	.	16f/	.	.	.	.	.	.	.
8F\	.	8d/L	.	16b-/	.	.	8d\L	O-	.	.	.
.	.	.	.	16f/JJ	.	.	.	.	.	.	.
8F\	.	8c/	.	16a/LL	.	.	8c\	.	.	.	.
.	.	.	.	16f/	.	.	.	.	.	.	.
8F\J	.	8Bn/J	.	16g#X/	.	.	8Bn\J	.	.	.	.
.	.	.	.	16f/JJ	.	.	.	.	.	.	.
*Xtremolo	*	*	*	*	*	*	*	*	*	*	*
!	!	!	!	!	!	!	!LO:LB:g=original	!	!	!	!
=92	=92	=92	=92	=92	=92	=92	=92	=92	=92	=92	=92
!LO:TX:t=P:problem=mixed beam	!	!	!	!	!	!	!	!	!	!	!
8FF/L	.	4c/	.	16a/LL	.	2.ryy	4c\	-ra	2.ryy	2.ryy	2.ryy
.	.	.	.	16f/	.	.	.	.	.	.	.
8F\J	.	.	.	16e/	.	.	.	.	.	.	.
.	.	.	.	16f/JJ	.	.	.	.	.	.	.
*tremolo	*	*	*	*	*	*	*	*	*	*	*
8F\L	.	8r	.	16e/LL	.	.	8r	.	.	.	.
.	.	.	.	16f/	.	.	.	.	.	.	.
*	*	*	*	*	*	*	*	*ij	*	*	*
8F\	.	8d/L	.	16b-/	.	.	8d\L	O-	.	.	.
.	.	.	.	16f/JJ	.	.	.	.	.	.	.
8F\	.	8c/	.	16a/LL	.	.	8c\	.	.	.	.
.	.	.	.	16f/	.	.	.	.	.	.	.
8F\J	.	8Bn/J	.	16g#X/	.	.	8Bn\J	.	.	.	.
.	.	.	.	16f/JJ	.	.	.	.	.	.	.
*Xtremolo	*	*	*	*	*	*	*	*	*	*	*
!	!	!LO:LB:g=original	!	!	!	!	!	!	!	!	!
=93	=93	=93	=93	=93	=93	=93	=93	=93	=93	=93	=93
!LO:TX:t=P:problem=mixed beam	!	!	!	!	!	!	!	!	!	!	!
8FF/L	.	4c/	.	16a/LL	.	2.ryy	4c\	-ra	2.ryy	2.ryy	2.ryy
*	*	*	*	*	*	*	*	*Xij	*	*	*
.	.	.	.	16f/	.	.	.	.	.	.	.
8F\	.	.	.	16e/	.	.	.	.	.	.	.
.	.	.	.	16f/JJ	.	.	.	.	.	.	.
8FF/J	.	8r	.	16e/LL	.	.	8r	.	.	.	.
.	.	.	.	16f/	.	.	.	.	.	.	.
8r	.	8f/L	.	16dd/	.	.	8f\L	O-	.	.	.
.	.	.	.	16f/JJ	.	.	.	.	.	.	.
4r	.	8e/	.	16cc/LL	.	.	8e\	.	.	.	.
.	.	.	.	16f/	.	.	.	.	.	.	.
.	.	8d/J	.	16b-/	.	.	8d\J	.	.	.	.
.	.	.	.	16f/JJ	.	.	.	.	.	.	.
=94	=94	=94	=94	=94	=94	=94	=94	=94	=94	=94	=94
!LO:TX:t=P:problem=mixed beam	!	!	!	!	!	!	!	!	!	!	!
8A\L	.	8c/L	.	16a\LL	.	2.ryy	16c\LL	.	2.ryy	2.ryy	2.ryy
.	.	.	.	16f\	.	.	16A\JJ	.	.	.	.
8B-\	.	8d/	.	16dd\	.	.	16B-\	-ra	.	.	.
.	.	.	.	16b-\JJ	.	.	16G/	pro	.	.	.
8c\	.	8a 8f/	.	16a\LL	.	.	4F/	no-	.	.	.
.	.	.	.	16ff\	.	.	.	.	.	.	.
8c\	.	8a 8f/	.	16a\	.	.	.	.	.	.	.
.	.	.	.	16ff\JJ	.	.	.	.	.	.	.
8C/	.	8b-/	.	16g\LL	.	.	4E/	.	.	.	.
.	.	.	.	16ee\	.	.	.	.	.	.	.
8C/J	.	8b-/J	.	16g\	.	.	.	.	.	.	.
.	.	.	.	16ee\JJ	.	.	.	.	.	.	.
!	!	!	!	!LO:LB:g=original	!	!	!	!	!	!	!
=95	=95	=95	=95	=95	=95	=95	=95	=95	=95	=95	=95
4F\	.	8a/L	.	4ff 4a/	.	2.ryy	8F/	-bis	2.ryy	2.ryy	2.ryy
.	.	8f/	.	.	.	.	8A\L	O-	.	.	.
4r	.	8g/	.	4r	.	.	8B-\	.	.	.	.
.	.	8a/	.	.	.	.	8c\	.	.	.	.
4r	.	8b-/	.	4r	.	.	8d\	.	.	.	.
.	.	8g/J	.	.	.	.	8e\J	.	.	.	.
=96	=96	=96	=96	=96	=96	=96	=96	=96	=96	=96	=96
4F\	.	16a/LL	.	16r	.	2.ryy	2.f\	.	2.ryy	2.ryy	2.ryy
.	.	16f/	.	16a/LL	.	.	.	.	.	.	.
.	.	16e/	.	16g/	.	.	.	.	.	.	.
.	.	16f/JJ	.	16a/JJ	.	.	.	.	.	.	.
4r	.	16g/LL	.	16b-\LL	.	.	.	.	.	.	.
.	.	16a/	.	16cc\	.	.	.	.	.	.	.
.	.	16b-/	.	16dd\	.	.	.	.	.	.	.
.	.	16cc/JJ	.	16ee\JJ	.	.	.	.	.	.	.
4r	.	16dd\LL	.	16ff\LL	.	.	.	.	.	.	.
.	.	16ee\	.	16gg\	.	.	.	.	.	.	.
.	.	16ff\	.	16aa\	.	.	.	.	.	.	.
.	.	16gg\JJ	.	16bb-\JJ	.	.	.	.	.	.	.
!LO:LB:g=original	!	!	!	!	!	!	!	!	!	!	!
=97	=97	=97	=97	=97	=97	=97	=97	=97	=97	=97	=97
!LO:TX:t=P:problem=mixed beam	!	!	!	!	!	!	!	!	!	!	!
8A\L	.	16aa\LL	.	16ccc\LL	.	2.ryy	8f\	.	2.ryy	2.ryy	2.ryy
.	.	16ff\	.	16aa\	.	.	.	.	.	.	.
8B-\	.	16dd\	.	16bb-\	.	.	16d\	-ra	.	.	.
.	.	16b-\JJ	.	16gg\JJ	.	.	16g\	pro	.	.	.
8c\	.	8a/L	.	4ff\	.	.	4f\	no-	.	.	.
8c\	.	8a/	.	.	.	.	.	.	.	.	.
8C/	.	8b-/	.	4ggT\	.	.	4et\	.	.	.	.
8C/J	.	8b-/J	.	.	.	.	.	.	.	.	.
!	!	!	!	!	!	!	!LO:LB:g=original	!	!	!	!
=98	=98	=98	=98	=98	=98	=98	=98	=98	=98	=98	=98
!LO:TX:t=P:problem=mixed beam	!	!	!	!	!LO:DY:t=for	!	!	!	!	!	!
8FF/L	.	16a\LL	.	4ff\	f	2.ryy	4f\	-bis	2.ryy	2.ryy	2.ryy
.	.	16dd\	.	.	.	.	.	.	.	.	.
!	!	!	!LO:DY:t=f.	!	!	!	!	!	!	!	!
8F\	.	16cc#X\	f	.	.	.	.	.	.	.	.
.	.	16dd\JJ	.	.	.	.	.	.	.	.	.
8FF/J	.	4a\	.	16ff\LL	.	.	4r	.	.	.	.
.	.	.	.	16ee\	.	.	.	.	.	.	.
8r	.	.	.	16ff\	.	.	.	.	.	.	.
.	.	.	.	16ee\JJ	.	.	.	.	.	.	.
!	!	!	!	!	!	!	!LO:TX:t=P:problem=partia kończy się w t. nr 98	!	!	!	!
4r	.	16dd\LL	.	16ff\LL	.	.	4r	.	.	.	.
.	.	16ccn\	.	16ee\	.	.	.	.	.	.	.
.	.	16b-\	.	16dd\	.	.	.	.	.	.	.
.	.	16a\JJ	.	16cc#X\JJ	.	.	.	.	.	.	.
=99	=99	=99	=99	=99	=99	=99	=99	=99	=99	=99	=99
!LO:TX:t=P:problem=mixed beam	!	!	!	!	!	!	!	!	!	!	!
8BB-/L	.	4b-\	.	4dd\	.	2.ryy	2.ryy	.	2.ryy	2.ryy	2.ryy
8B-\	.	.	.	.	.	.	.	.	.	.	.
8BB-/J	.	16b-\LL	.	16dd\LL	.	.	.	.	.	.	.
.	.	16a\	.	16cc#X\	.	.	.	.	.	.	.
8r	.	16b-\	.	16dd\	.	.	.	.	.	.	.
.	.	16a\JJ	.	16cc#\JJ	.	.	.	.	.	.	.
!	!	!LO:LB:g=original	!	!	!	!	!	!	!	!	!
4r	.	16b-\LL	.	16dd\LL	.	.	.	.	.	.	.
.	.	16cc\	.	16ee\	.	.	.	.	.	.	.
.	.	16dd\	.	16ff\	.	.	.	.	.	.	.
.	.	16b-\JJ	.	16dd\JJ	.	.	.	.	.	.	.
=100	=100	=100	=100	=100	=100	=100	=100	=100	=100	=100	=100
!	!	!	!LO:DY:t=p.	!	!	!	!	!	!	!	!
4c\	.	8a/L	p	8cc\L	p	2.ryy	2.ryy	.	2.ryy	2.ryy	2.ryy
.	.	8a/	.	8cc\	.	.	.	.	.	.	.
4r	.	8g#X/	.	8bn\	.	.	.	.	.	.	.
.	.	8gn/	.	8b-X\	.	.	.	.	.	.	.
4C/	.	8f/	.	8a\	.	.	.	.	.	.	.
.	.	8e/J	.	8g\J	.	.	.	.	.	.	.
=101	=101	=101	=101	=101	=101	=101	=101	=101	=101	=101	=101
!LO:TX:t=P:problem=mixed beam	!	!	!LO:DY:t=f.	!	!LO:DY:t=for.	!	!	!	!	!	!
8FF/L	.	4a\	f	4ff\	f	2.ryy	2.ryy	.	2.ryy	2.ryy	2.ryy
8F\	.	.	.	.	.	.	.	.	.	.	.
8FF/J	.	16dd\LL	.	16ff\LL	.	.	.	.	.	.	.
.	.	16cc#X\	.	16ee\	.	.	.	.	.	.	.
8r	.	16dd\	.	16ff\	.	.	.	.	.	.	.
.	.	16cc#\JJ	.	16ee\JJ	.	.	.	.	.	.	.
4r	.	16dd\LL	.	16ff\LL	.	.	.	.	.	.	.
.	.	16ccn\	.	16ee\	.	.	.	.	.	.	.
.	.	16b-\	.	16dd\	.	.	.	.	.	.	.
.	.	16a\JJ	.	16cc#X\JJ	.	.	.	.	.	.	.
!	!	!	!	!LO:LB:g=original	!	!	!	!	!	!	!
=102	=102	=102	=102	=102	=102	=102	=102	=102	=102	=102	=102
!LO:TX:t=P:problem=mixed beam	!	!	!	!	!	!	!	!	!	!	!
8BB-/L	.	4b-\	.	4dd\	.	2.ryy	2.ryy	.	2.ryy	2.ryy	2.ryy
8B-\	.	.	.	.	.	.	.	.	.	.	.
8BB-/J	.	16b-\LL	.	16dd\LL	.	.	.	.	.	.	.
.	.	16a\	.	16cc#X\	.	.	.	.	.	.	.
8r	.	16b-\	.	16dd\	.	.	.	.	.	.	.
.	.	16a\JJ	.	16cc#\JJ	.	.	.	.	.	.	.
4r	.	16b-\LL	.	16dd\LL	.	.	.	.	.	.	.
.	.	16cc\	.	16ee\	.	.	.	.	.	.	.
.	.	16dd\	.	16ff\	.	.	.	.	.	.	.
.	.	16b-\JJ	.	16dd\JJ	.	.	.	.	.	.	.
=103	=103	=103	=103	=103	=103	=103	=103	=103	=103	=103	=103
!	!	!	!	!	!LO:DY:t=p.	!	!	!	!	!	!
4c\	.	8a/L	.	8cc\L	p	2.ryy	2.ryy	.	2.ryy	2.ryy	2.ryy
.	.	8a/	.	8cc\	.	.	.	.	.	.	.
4r	.	8g#X/	.	8bn\	.	.	.	.	.	.	.
.	.	8gn/	.	8b-X\	.	.	.	.	.	.	.
4C/	.	8f/	.	8a\	.	.	.	.	.	.	.
.	.	8e/J	.	8g\J	.	.	.	.	.	.	.
=104	=104	=104	=104	=104	=104	=104	=104	=104	=104	=104	=104
4F\	.	4f/	.	4f/	.	2.ryy	2.ryy	.	2.ryy	2.ryy	2.ryy
4FF/	.	4a 4f 4A/	.	4ff 4a/	.	.	.	.	.	.	.
!	!	!	!	!LO:TX:b:i:t=Salus Volti Subito	!	!	!	!	!	!	!
4r	.	4r	.	4r	.	.	.	.	.	.	.
==	==	==	==	==	==	==	==	==	==	==	==
*-	*-	*-	*-	*-	*-	*-	*-	*-	*-	*-	*-
!!!system-decoration: [(s1,s2)][(s3,s4,s5)][(s6,s7)]s8
!!!ENC: Filip Voros
!!!END: 2021-11-19
!!!ENC: Andrzej Kubiczek
!!!END: 2021-11-19
!!!YEC: Copyright 2022 Narodowy Instytut Fryderyka Chopina (https://polishscores.org)
!!!YEM: Licence CC BY 4.0 (https://creativecommons.org/licenses/by/4.0)
